; generated by PrusaSlicer 2.9.0 on 2025-02-10 at 15:40:57 UTC

; 

; external perimeters extrusion width = 1.12mm
; perimeters extrusion width = 1.12mm
; infill extrusion width = 1.12mm
; solid infill extrusion width = 1.12mm
; top infill extrusion width = 1.00mm
; first layer extrusion width = 1.05mm

M190 S25 ; set bed temperature and wait for it to be reached
;TYPE:Custom
G28 H ; home all axes
G92 E0 ; zero extruder
M6
M220 S100
M221 S100
M104 S200 T0
M104 S160 T1

M109 S200 T0
M109 S160 T1
G21 ; set units to millimeters
G90 ; use absolute coordinates
M82 ; use absolute distances for extrusion
G92 E0
M107
;LAYER_CHANGE
;Z:0.5
;HEIGHT:0.5
G1 E-2 F2400
G92 E0
G1 Z.5 F7800
G1 X0 Y-25.471
G1 E2 F2400
;TYPE:Skirt/Brim
;WIDTH:1.05
G1 F1500
G1 X60 Y-25.471 E27.86729
G1 X62.045 Y-25.075 E28.76531
G1 X63.793 Y-23.943 E29.66313
G1 X64.992 Y-22.24 E30.56104
G1 X65.471 Y-20 E31.54859
G1 X65.471 Y20 E48.79345
G1 X65.075 Y22.045 E49.69147
G1 X63.943 Y23.793 E50.58929
G1 X62.24 Y24.992 E51.4872
G1 X60 Y25.471 E52.47475
G1 X-60 Y25.471 E104.20934
G1 X-62.045 Y25.075 E105.10736
G1 X-63.793 Y23.943 E106.00518
G1 X-64.992 Y22.24 E106.90309
G1 X-65.471 Y20 E107.89064
G1 X-65.471 Y-20 E125.1355
G1 X-65.075 Y-22.045 E126.03352
G1 X-63.943 Y-23.793 E126.93134
G1 X-62.24 Y-24.992 E127.82925
G1 X-60 Y-25.471 E128.8168
G1 X-.15 Y-25.471 E154.61943
G1 E152.61943 F2400
G92 E0
G1 X-.15 Y-25.471 F7800
G92 E0
G1 X-47.573 Y-19.44
G1 E2 F2400
;TYPE:Internal infill
G1 F1500
G1 X-41.497 Y-19.44 E4.61949
G1 X-41.673 Y-19.015 E4.81781
G1 X-41.999 Y-18.472 E5.09086
G1 X-42.432 Y-17.928 E5.39061
G1 X-44.052 Y-16.299 E6.38107
G1 X-44.897 Y-15.212 E6.97464
G1 X-45.408 Y-14.125 E7.49247
G1 X-45.659 Y-13.039 E7.97301
G1 X-45.69 Y-11.952 E8.44183
G1 X-45.478 Y-10.866 E8.91887
G1 X-45.253 Y-10.322 E9.17267
G1 X-44.927 Y-9.779 E9.44572
G1 X-44.494 Y-9.236 E9.74514
G1 X-42.873 Y-7.606 E10.73621
G1 X-42.029 Y-6.519 E11.32952
G1 X-41.518 Y-5.433 E11.84696
G1 X-41.267 Y-4.346 E12.32792
G1 X-41.235 Y-3.26 E12.79632
G1 X-41.448 Y-2.173 E13.27386
G1 X-41.673 Y-1.63 E13.52726
G1 X-41.999 Y-1.087 E13.80031
G1 X-42.432 Y-.543 E14.10006
G1 X-44.052 Y1.087 E15.09082
G1 X-44.897 Y2.173 E15.68405
G1 X-45.408 Y3.26 E16.20188
G1 X-45.659 Y4.346 E16.68242
G1 X-45.69 Y5.433 E17.15124
G1 X-45.478 Y6.519 E17.62828
G1 X-45.253 Y7.063 E17.88208
G1 X-44.927 Y7.606 E18.15513
G1 X-44.494 Y8.149 E18.45455
G1 X-42.873 Y9.779 E19.44562
G1 X-42.029 Y10.866 E20.03893
G1 X-41.518 Y11.952 E20.55637
G1 X-41.267 Y13.039 E21.03733
G1 X-41.235 Y14.125 E21.50573
G1 X-41.448 Y15.212 E21.98327
G1 X-41.673 Y15.755 E22.23667
G1 X-41.999 Y16.299 E22.51009
G1 X-42.432 Y16.842 E22.80951
G1 X-44.052 Y18.472 E23.80027
G1 X-44.814 Y19.44 E24.33138
G1 X-36.736 Y19.44 E27.81398
G1 X-36.56 Y19.015 E28.0123
G1 X-36.234 Y18.472 E28.28535
G1 X-35.801 Y17.928 E28.5851
G1 X-34.181 Y16.299 E29.57556
G1 X-33.715 Y15.755 E29.88437
G1 X-33.337 Y15.212 E30.16961
G1 X-32.825 Y14.125 E30.68762
G1 X-32.574 Y13.039 E31.16816
G1 X-32.543 Y11.952 E31.63698
G1 X-32.755 Y10.866 E32.11402
G1 X-32.981 Y10.322 E32.36798
G1 X-33.307 Y9.779 E32.64103
G1 X-33.74 Y9.236 E32.94045
G1 X-35.36 Y7.606 E33.93121
G1 X-36.204 Y6.519 E34.52452
G1 X-36.716 Y5.433 E35.04214
G1 X-36.966 Y4.346 E35.523
G1 X-36.998 Y3.26 E35.9914
G1 X-36.786 Y2.173 E36.46886
G1 X-36.56 Y1.63 E36.72243
G1 X-36.234 Y1.087 E36.99548
G1 X-35.801 Y.543 E37.29523
G1 X-34.181 Y-1.087 E38.28599
G1 X-33.337 Y-2.173 E38.87896
G1 X-32.825 Y-3.26 E39.39697
G1 X-32.574 Y-4.346 E39.87751
G1 X-32.543 Y-5.433 E40.34633
G1 X-32.755 Y-6.519 E40.82337
G1 X-32.981 Y-7.063 E41.07733
G1 X-33.307 Y-7.606 E41.35038
G1 X-33.74 Y-8.149 E41.6498
G1 X-35.36 Y-9.779 E42.64056
G1 X-36.204 Y-10.866 E43.23387
G1 X-36.716 Y-11.952 E43.75149
G1 X-36.966 Y-13.039 E44.23235
G1 X-36.998 Y-14.125 E44.70075
G1 X-36.786 Y-15.212 E45.17821
G1 X-36.56 Y-15.755 E45.43178
G1 X-36.234 Y-16.299 E45.7052
G1 X-35.801 Y-16.842 E46.00462
G1 X-34.181 Y-18.472 E46.99538
G1 X-33.419 Y-19.44 E47.52649
G1 X-24.112 Y-19.44 E51.53894
G1 X-24.288 Y-19.015 E51.73726
G1 X-24.614 Y-18.472 E52.01031
G1 X-25.047 Y-17.928 E52.31006
G1 X-26.667 Y-16.299 E53.30052
G1 X-27.511 Y-15.212 E53.89383
G1 X-28.023 Y-14.125 E54.41184
G1 X-28.274 Y-13.039 E54.89238
G1 X-28.305 Y-11.952 E55.3612
G1 X-28.093 Y-10.866 E55.83824
G1 X-27.867 Y-10.322 E56.0922
G1 X-27.541 Y-9.779 E56.36525
G1 X-27.108 Y-9.236 E56.66467
G1 X-25.488 Y-7.606 E57.65543
G1 X-24.644 Y-6.519 E58.24874
G1 X-24.132 Y-5.433 E58.76636
G1 X-23.882 Y-4.346 E59.24722
G1 X-23.85 Y-3.26 E59.71562
G1 X-24.063 Y-2.173 E60.19316
G1 X-24.288 Y-1.63 E60.44656
G1 X-24.614 Y-1.087 E60.71961
G1 X-25.047 Y-.543 E61.01936
G1 X-26.667 Y1.087 E62.01012
G1 X-27.511 Y2.173 E62.60309
G1 X-28.023 Y3.26 E63.1211
G1 X-28.274 Y4.346 E63.60164
G1 X-28.305 Y5.433 E64.07046
G1 X-28.093 Y6.519 E64.5475
G1 X-27.867 Y7.063 E64.80146
G1 X-27.541 Y7.606 E65.07451
G1 X-27.108 Y8.149 E65.37393
G1 X-25.488 Y9.779 E66.36469
G1 X-24.644 Y10.866 E66.958
G1 X-24.132 Y11.952 E67.47562
G1 X-23.882 Y13.039 E67.95648
G1 X-23.85 Y14.125 E68.42488
G1 X-24.063 Y15.212 E68.90242
G1 X-24.288 Y15.755 E69.15582
G1 X-24.614 Y16.299 E69.42924
G1 X-25.047 Y16.842 E69.72866
G1 X-26.667 Y18.472 E70.71942
G1 X-27.429 Y19.44 E71.25053
G1 X-19.351 Y19.44 E74.73313
G1 X-19.175 Y19.015 E74.93145
G1 X-18.849 Y18.472 E75.2045
G1 X-18.416 Y17.928 E75.50425
G1 X-16.796 Y16.299 E76.49471
G1 X-16.33 Y15.755 E76.80352
G1 X-15.951 Y15.212 E77.089
G1 X-15.44 Y14.125 E77.60683
G1 X-15.189 Y13.039 E78.08737
G1 X-15.158 Y11.952 E78.55619
G1 X-15.37 Y10.866 E79.03323
G1 X-15.596 Y10.322 E79.28719
G1 X-15.922 Y9.779 E79.56024
G1 X-16.355 Y9.236 E79.85966
G1 X-17.975 Y7.606 E80.85042
G1 X-18.819 Y6.519 E81.44373
G1 X-19.33 Y5.433 E81.96117
G1 X-19.581 Y4.346 E82.44213
G1 X-19.613 Y3.26 E82.91053
G1 X-19.4 Y2.173 E83.38807
G1 X-19.175 Y1.63 E83.64147
G1 X-18.849 Y1.087 E83.91452
G1 X-18.416 Y.543 E84.21427
G1 X-16.796 Y-1.087 E85.20503
G1 X-15.951 Y-2.173 E85.79826
G1 X-15.44 Y-3.26 E86.31609
G1 X-15.189 Y-4.346 E86.79663
G1 X-15.158 Y-5.433 E87.26545
G1 X-15.37 Y-6.519 E87.74249
G1 X-15.596 Y-7.063 E87.99645
G1 X-15.922 Y-7.606 E88.2695
G1 X-16.355 Y-8.149 E88.56892
G1 X-17.975 Y-9.779 E89.55968
G1 X-18.819 Y-10.866 E90.15299
G1 X-19.33 Y-11.952 E90.67043
G1 X-19.581 Y-13.039 E91.15139
G1 X-19.613 Y-14.125 E91.61979
G1 X-19.4 Y-15.212 E92.09733
G1 X-19.175 Y-15.755 E92.35073
G1 X-18.849 Y-16.299 E92.62415
G1 X-18.416 Y-16.842 E92.92357
G1 X-16.796 Y-18.472 E93.91433
G1 X-16.034 Y-19.44 E94.44544
G1 X-6.726 Y-19.44 E98.45832
G1 X-6.903 Y-19.015 E98.6568
G1 X-7.229 Y-18.472 E98.92985
G1 X-7.662 Y-17.928 E99.2296
G1 X-9.282 Y-16.299 E100.22006
G1 X-10.126 Y-15.212 E100.81337
G1 X-10.638 Y-14.125 E101.33138
G1 X-10.888 Y-13.039 E101.81182
G1 X-10.92 Y-11.952 E102.28065
G1 X-10.708 Y-10.866 E102.75769
G1 X-10.482 Y-10.322 E103.01165
G1 X-10.156 Y-9.779 E103.2847
G1 X-9.723 Y-9.236 E103.58412
G1 X-8.103 Y-7.606 E104.57488
G1 X-7.259 Y-6.519 E105.16819
G1 X-6.747 Y-5.433 E105.68581
G1 X-6.497 Y-4.346 E106.16667
G1 X-6.465 Y-3.26 E106.63507
G1 X-6.677 Y-2.173 E107.11253
G1 X-6.903 Y-1.63 E107.3661
G1 X-7.229 Y-1.087 E107.63915
G1 X-7.662 Y-.543 E107.9389
G1 X-9.282 Y1.087 E108.92966
G1 X-10.126 Y2.173 E109.52263
G1 X-10.638 Y3.26 E110.04064
G1 X-10.888 Y4.346 E110.52108
G1 X-10.92 Y5.433 E110.98991
G1 X-10.708 Y6.519 E111.46695
G1 X-10.482 Y7.063 E111.72091
G1 X-10.156 Y7.606 E111.99396
G1 X-9.723 Y8.149 E112.29338
G1 X-8.103 Y9.779 E113.28414
G1 X-7.259 Y10.866 E113.87745
G1 X-6.747 Y11.952 E114.39507
G1 X-6.497 Y13.039 E114.87593
G1 X-6.465 Y14.125 E115.34433
G1 X-6.677 Y15.212 E115.82179
G1 X-6.903 Y15.755 E116.07536
G1 X-7.229 Y16.299 E116.34878
G1 X-7.662 Y16.842 E116.6482
G1 X-9.282 Y18.472 E117.63896
G1 X-10.044 Y19.44 E118.17007
G1 X-1.966 Y19.44 E121.65267
G1 X-1.79 Y19.015 E121.85099
G1 X-1.464 Y18.472 E122.12404
G1 X-1.031 Y17.928 E122.42379
G1 X.589 Y16.299 E123.41425
G1 X1.055 Y15.755 E123.72306
G1 X1.434 Y15.212 E124.00854
G1 X1.945 Y14.125 E124.52637
G1 X2.196 Y13.039 E125.00691
G1 X2.227 Y11.952 E125.47573
G1 X2.015 Y10.866 E125.95277
G1 X1.79 Y10.322 E126.20657
G1 X1.464 Y9.779 E126.47962
G1 X1.031 Y9.236 E126.77904
G1 X-.589 Y7.606 E127.7698
G1 X-1.434 Y6.519 E128.36337
G1 X-1.945 Y5.433 E128.88081
G1 X-2.196 Y4.346 E129.36177
G1 X-2.227 Y3.26 E129.83016
G1 X-2.015 Y2.173 E130.30762
G1 X-1.79 Y1.63 E130.56102
G1 X-1.464 Y1.087 E130.83407
G1 X-1.031 Y.543 E131.13382
G1 X.589 Y-1.087 E132.12458
G1 X1.434 Y-2.173 E132.71781
G1 X1.945 Y-3.26 E133.23564
G1 X2.196 Y-4.346 E133.71618
G1 X2.227 Y-5.433 E134.185
G1 X2.015 Y-6.519 E134.66204
G1 X1.79 Y-7.063 E134.91584
G1 X1.464 Y-7.606 E135.18889
G1 X1.031 Y-8.149 E135.48831
G1 X-.589 Y-9.779 E136.47907
G1 X-1.434 Y-10.866 E137.07264
G1 X-1.945 Y-11.952 E137.59008
G1 X-2.196 Y-13.039 E138.07104
G1 X-2.227 Y-14.125 E138.53943
G1 X-2.015 Y-15.212 E139.01689
G1 X-1.79 Y-15.755 E139.27029
G1 X-1.464 Y-16.299 E139.54371
G1 X-1.031 Y-16.842 E139.84313
G1 X.589 Y-18.472 E140.83389
G1 X1.351 Y-19.44 E141.365
G1 X10.659 Y-19.44 E145.37788
G1 X10.482 Y-19.015 E145.57636
G1 X10.156 Y-18.472 E145.84941
G1 X9.723 Y-17.928 E146.14916
G1 X8.103 Y-16.299 E147.13962
G1 X7.259 Y-15.212 E147.73293
G1 X6.747 Y-14.125 E148.25094
G1 X6.497 Y-13.039 E148.73138
G1 X6.465 Y-11.952 E149.20021
G1 X6.677 Y-10.866 E149.67725
G1 X6.903 Y-10.322 E149.93121
G1 X7.229 Y-9.779 E150.20426
G1 X7.662 Y-9.236 E150.50368
G1 X9.282 Y-7.606 E151.49444
G1 X10.126 Y-6.519 E152.08775
G1 X10.638 Y-5.433 E152.60537
G1 X10.888 Y-4.346 E153.08623
G1 X10.92 Y-3.26 E153.55463
G1 X10.708 Y-2.173 E154.03209
G1 X10.482 Y-1.63 E154.28566
G1 X10.156 Y-1.087 E154.55871
G1 X9.723 Y-.543 E154.85846
G1 X8.103 Y1.087 E155.84922
G1 X7.259 Y2.173 E156.44219
G1 X6.747 Y3.26 E156.9602
G1 X6.497 Y4.346 E157.44064
G1 X6.465 Y5.433 E157.90947
G1 X6.677 Y6.519 E158.38651
G1 X6.903 Y7.063 E158.64047
G1 X7.229 Y7.606 E158.91352
G1 X7.662 Y8.149 E159.21294
G1 X9.282 Y9.779 E160.2037
G1 X10.126 Y10.866 E160.79701
G1 X10.638 Y11.952 E161.31463
G1 X10.888 Y13.039 E161.79549
G1 X10.92 Y14.125 E162.26389
G1 X10.708 Y15.212 E162.74135
G1 X10.482 Y15.755 E162.99492
G1 X10.156 Y16.299 E163.26834
G1 X9.723 Y16.842 E163.56776
G1 X8.103 Y18.472 E164.55852
G1 X7.341 Y19.44 E165.08963
G1 X15.419 Y19.44 E168.57223
G1 X15.596 Y19.015 E168.77071
G1 X15.922 Y18.472 E169.04376
G1 X16.355 Y17.928 E169.34351
G1 X17.975 Y16.299 E170.33397
G1 X18.441 Y15.755 E170.64278
G1 X18.819 Y15.212 E170.92802
G1 X19.33 Y14.125 E171.44585
G1 X19.581 Y13.039 E171.92639
G1 X19.613 Y11.952 E172.39522
G1 X19.4 Y10.866 E172.87234
G1 X19.175 Y10.322 E173.12614
G1 X18.849 Y9.779 E173.39919
G1 X18.416 Y9.236 E173.69861
G1 X16.796 Y7.606 E174.68937
G1 X15.952 Y6.519 E175.28268
G1 X15.44 Y5.433 E175.8003
G1 X15.189 Y4.346 E176.28126
G1 X15.158 Y3.26 E176.74965
G1 X15.37 Y2.173 E177.22711
G1 X15.596 Y1.63 E177.48068
G1 X15.922 Y1.087 E177.75373
G1 X16.355 Y.543 E178.05348
G1 X17.975 Y-1.087 E179.04424
G1 X18.819 Y-2.173 E179.63721
G1 X19.33 Y-3.26 E180.15504
G1 X19.581 Y-4.346 E180.63558
G1 X19.613 Y-5.433 E181.10441
G1 X19.4 Y-6.519 E181.58153
G1 X19.175 Y-7.063 E181.83533
G1 X18.849 Y-7.606 E182.10838
G1 X18.416 Y-8.149 E182.4078
G1 X16.796 Y-9.779 E183.39856
G1 X15.952 Y-10.866 E183.99187
G1 X15.44 Y-11.952 E184.50949
G1 X15.189 Y-13.039 E184.99045
G1 X15.158 Y-14.125 E185.45884
G1 X15.37 Y-15.212 E185.9363
G1 X15.596 Y-15.755 E186.18987
G1 X15.922 Y-16.299 E186.46329
G1 X16.355 Y-16.842 E186.76271
G1 X17.975 Y-18.472 E187.75347
G1 X18.736 Y-19.44 E188.28432
G1 X28.044 Y-19.44 E192.2972
G1 X27.867 Y-19.015 E192.49568
G1 X27.541 Y-18.472 E192.76873
G1 X27.108 Y-17.928 E193.06848
G1 X25.488 Y-16.299 E194.05894
G1 X24.644 Y-15.212 E194.65225
G1 X24.132 Y-14.125 E195.17026
G1 X23.882 Y-13.039 E195.6507
G1 X23.85 Y-11.952 E196.11953
G1 X24.063 Y-10.866 E196.59665
G1 X24.288 Y-10.322 E196.85045
G1 X24.614 Y-9.779 E197.1235
G1 X25.047 Y-9.236 E197.42292
G1 X26.667 Y-7.606 E198.41368
G1 X27.511 Y-6.519 E199.00699
G1 X28.023 Y-5.433 E199.52461
G1 X28.274 Y-4.346 E200.00557
G1 X28.305 Y-3.26 E200.47396
G1 X28.093 Y-2.173 E200.95142
G1 X27.867 Y-1.63 E201.20499
G1 X27.541 Y-1.087 E201.47804
G1 X27.108 Y-.543 E201.77779
G1 X25.488 Y1.087 E202.76855
G1 X24.644 Y2.173 E203.36152
G1 X24.132 Y3.26 E203.87953
G1 X23.882 Y4.346 E204.35997
G1 X23.85 Y5.433 E204.8288
G1 X24.063 Y6.519 E205.30592
G1 X24.288 Y7.063 E205.55972
G1 X24.614 Y7.606 E205.83277
G1 X25.047 Y8.149 E206.13219
G1 X26.667 Y9.779 E207.12295
G1 X27.511 Y10.866 E207.71626
G1 X28.023 Y11.952 E208.23388
G1 X28.274 Y13.039 E208.71484
G1 X28.305 Y14.125 E209.18323
G1 X28.093 Y15.212 E209.66069
G1 X27.867 Y15.755 E209.91426
G1 X27.541 Y16.299 E210.18768
G1 X27.108 Y16.842 E210.4871
G1 X25.488 Y18.472 E211.47786
G1 X24.726 Y19.44 E212.00897
G1 X32.804 Y19.44 E215.49157
G1 X32.981 Y19.015 E215.69005
G1 X33.307 Y18.472 E215.9631
G1 X33.74 Y17.928 E216.26285
G1 X35.36 Y16.299 E217.25331
G1 X35.826 Y15.755 E217.56212
G1 X36.204 Y15.212 E217.84736
G1 X36.716 Y14.125 E218.36537
G1 X36.966 Y13.039 E218.84581
G1 X36.998 Y11.952 E219.31464
G1 X36.786 Y10.866 E219.79168
G1 X36.56 Y10.322 E220.04564
G1 X36.234 Y9.779 E220.31869
G1 X35.801 Y9.236 E220.61811
G1 X34.181 Y7.606 E221.60887
G1 X33.337 Y6.519 E222.20218
G1 X32.825 Y5.433 E222.7198
G1 X32.575 Y4.346 E223.20066
G1 X32.543 Y3.26 E223.66906
G1 X32.755 Y2.173 E224.14652
G1 X32.981 Y1.63 E224.40009
G1 X33.307 Y1.087 E224.67314
G1 X33.74 Y.543 E224.97289
G1 X35.36 Y-1.087 E225.96365
G1 X36.204 Y-2.173 E226.55662
G1 X36.716 Y-3.26 E227.07463
G1 X36.966 Y-4.346 E227.55507
G1 X36.998 Y-5.433 E228.0239
G1 X36.786 Y-6.519 E228.50094
G1 X36.56 Y-7.063 E228.7549
G1 X36.234 Y-7.606 E229.02795
G1 X35.801 Y-8.149 E229.32737
G1 X34.181 Y-9.779 E230.31813
G1 X33.337 Y-10.866 E230.91144
G1 X32.825 Y-11.952 E231.42906
G1 X32.575 Y-13.039 E231.90992
G1 X32.543 Y-14.125 E232.37832
G1 X32.755 Y-15.212 E232.85578
G1 X32.981 Y-15.755 E233.10935
G1 X33.307 Y-16.299 E233.38277
G1 X33.74 Y-16.842 E233.68219
G1 X35.36 Y-18.472 E234.67295
G1 X36.122 Y-19.44 E235.20406
G1 X45.429 Y-19.44 E239.21651
G1 X45.253 Y-19.015 E239.41483
G1 X44.927 Y-18.472 E239.68788
G1 X44.494 Y-17.928 E239.98763
G1 X42.873 Y-16.299 E240.97839
G1 X42.029 Y-15.212 E241.5717
G1 X41.518 Y-14.125 E242.08953
G1 X41.267 Y-13.039 E242.57007
G1 X41.236 Y-11.952 E243.03889
G1 X41.448 Y-10.866 E243.51593
G1 X41.673 Y-10.322 E243.76973
G1 X41.999 Y-9.779 E244.04278
G1 X42.432 Y-9.236 E244.3422
G1 X44.052 Y-7.606 E245.33296
G1 X44.897 Y-6.519 E245.92653
G1 X45.408 Y-5.433 E246.44397
G1 X45.659 Y-4.346 E246.92493
G1 X45.69 Y-3.26 E247.39332
G1 X45.478 Y-2.173 E247.87078
G1 X45.253 Y-1.63 E248.12418
G1 X44.927 Y-1.087 E248.39723
G1 X44.494 Y-.543 E248.69698
G1 X42.873 Y1.087 E249.68805
G1 X42.029 Y2.173 E250.28102
G1 X41.518 Y3.26 E250.79885
G1 X41.267 Y4.346 E251.27939
G1 X41.236 Y5.433 E251.74821
G1 X41.448 Y6.519 E252.22525
G1 X41.673 Y7.063 E252.47905
G1 X41.999 Y7.606 E252.7521
G1 X42.432 Y8.149 E253.05152
G1 X44.052 Y9.779 E254.04228
G1 X44.897 Y10.866 E254.63585
G1 X45.408 Y11.952 E255.15329
G1 X45.659 Y13.039 E255.63425
G1 X45.69 Y14.125 E256.10264
G1 X45.478 Y15.212 E256.5801
G1 X45.253 Y15.755 E256.8335
G1 X44.927 Y16.299 E257.10692
G1 X44.494 Y16.842 E257.40634
G1 X42.873 Y18.472 E258.39741
G1 X42.112 Y19.44 E258.92826
G1 X50.189 Y19.44 E262.41043
G1 X50.366 Y19.015 E262.60891
G1 X50.692 Y18.472 E262.88196
G1 X51.125 Y17.928 E263.18171
G1 X52.745 Y16.299 E264.17217
G1 X53.211 Y15.755 E264.48098
G1 X53.882 Y14.669 E265.03134
G1 X54.101 Y14.125 E265.28416
G1 X54.351 Y13.039 E265.7646
G1 X54.383 Y11.952 E266.23343
G1 X54.171 Y10.866 E266.71047
G1 X53.945 Y10.322 E266.96443
G1 X53.619 Y9.779 E267.23748
G1 X53.186 Y9.236 E267.5369
G1 X51.566 Y7.606 E268.52766
G1 X50.722 Y6.519 E269.12097
G1 X50.21 Y5.433 E269.63859
G1 X49.96 Y4.346 E270.11945
G1 X49.928 Y3.26 E270.58785
G1 X50.14 Y2.173 E271.06531
G1 X50.366 Y1.63 E271.31888
G1 X50.692 Y1.087 E271.59193
G1 X51.125 Y.543 E271.89168
G1 X52.745 Y-1.087 E272.88244
G1 X53.211 Y-1.63 E273.19093
