; generated by PrusaSlicer 2.9.0 on 2025-02-10 at 15:40:57 UTC

; 

; external perimeters extrusion width = 1.12mm
; perimeters extrusion width = 1.12mm
; infill extrusion width = 1.12mm
; solid infill extrusion width = 1.12mm
; top infill extrusion width = 1.00mm
; first layer extrusion width = 1.05mm

M190 S25 ; set bed temperature and wait for it to be reached
;TYPE:Custom
G28 H ; home all axes
G92 E0 ; zero extruder
M6
M220 S100
M221 S100
M104 S200 T0
M104 S160 T1

M109 S200 T0
M109 S160 T1
G21 ; set units to millimeters
G90 ; use absolute coordinates
M82 ; use absolute distances for extrusion
G92 E0
M107
;LAYER_CHANGE
;Z:0.5
;HEIGHT:0.5
G1 E-3.00000 F2400
G92 E0
G1 Z.5 F7800
G1 X0 Y-25.471
G1 E3.00000 F2400
;TYPE:Skirt/Brim
;WIDTH:1.05
G1 F1500
G1 X60 Y-25.471 E28.86729
G1 X62.045 Y-25.075 E29.76531
G1 X63.793 Y-23.943 E30.66313
G1 X64.992 Y-22.24 E31.56104
G1 X65.471 Y-20 E32.54859
G1 X65.471 Y20 E49.79345
G1 X65.075 Y22.045 E50.69147
G1 X63.943 Y23.793 E51.58929
G1 X62.24 Y24.992 E52.48720
G1 X60 Y25.471 E53.47475
G1 X-60 Y25.471 E105.20934
G1 X-62.045 Y25.075 E106.10736
G1 X-63.793 Y23.943 E107.00518
G1 X-64.992 Y22.24 E107.90309
G1 X-65.471 Y20 E108.89064
G1 X-65.471 Y-20 E126.13550
G1 X-65.075 Y-22.045 E127.03352
G1 X-63.943 Y-23.793 E127.93134
G1 X-62.24 Y-24.992 E128.82925
G1 X-60 Y-25.471 E129.81680
G1 X-.15 Y-25.471 E155.61943
G1 E153.61943 F2400
G92 E0
G1 X-.15 Y-25.471 F7800
G92 E0
G1 X-47.573 Y-19.44
G1 E2.00000 F2400
;TYPE:Internal infill
G1 F1500
G1 X-41.497 Y-19.44 E4.61949
G1 X-41.673 Y-19.015 E4.81781
G1 X-41.999 Y-18.472 E5.09086
G1 X-42.432 Y-17.928 E5.39061
G1 X-44.052 Y-16.299 E6.38107
G1 X-44.897 Y-15.212 E6.97464
G1 X-45.408 Y-14.125 E7.49247
G1 X-45.659 Y-13.039 E7.97301
G1 X-45.69 Y-11.952 E8.44183
G1 X-45.478 Y-10.866 E8.91887
G1 X-45.253 Y-10.322 E9.17267
G1 X-44.927 Y-9.779 E9.44572
G1 X-44.494 Y-9.236 E9.74514
G1 X-42.873 Y-7.606 E10.73621
G1 X-42.029 Y-6.519 E11.32952
G1 X-41.518 Y-5.433 E11.84696
G1 X-41.267 Y-4.346 E12.32792
G1 X-41.235 Y-3.26 E12.79632
G1 X-41.448 Y-2.173 E13.27386
G1 X-41.673 Y-1.63 E13.52726
G1 X-41.999 Y-1.087 E13.80031
G1 X-42.432 Y-.543 E14.10006
G1 X-44.052 Y1.087 E15.09082
G1 X-44.897 Y2.173 E15.68405
G1 X-45.408 Y3.26 E16.20188
G1 X-45.659 Y4.346 E16.68242
G1 X-45.69 Y5.433 E17.15124
G1 X-45.478 Y6.519 E17.62828
G1 X-45.253 Y7.063 E17.88208
G1 X-44.927 Y7.606 E18.15513
G1 X-44.494 Y8.149 E18.45455
G1 X-42.873 Y9.779 E19.44562
G1 X-42.029 Y10.866 E20.03893
G1 X-41.518 Y11.952 E20.55637
G1 X-41.267 Y13.039 E21.03733
G1 X-41.235 Y14.125 E21.50573
G1 X-41.448 Y15.212 E21.98327
G1 X-41.673 Y15.755 E22.23667
G1 X-41.999 Y16.299 E22.51009
G1 X-42.432 Y16.842 E22.80951
G1 X-44.052 Y18.472 E23.80027
G1 X-44.814 Y19.44 E24.33138
G1 X-36.736 Y19.44 E27.81398
G1 X-36.56 Y19.015 E28.01230
G1 X-36.234 Y18.472 E28.28535
G1 X-35.801 Y17.928 E28.58510
G1 X-34.181 Y16.299 E29.57556
G1 X-33.715 Y15.755 E29.88437
G1 X-33.337 Y15.212 E30.16961
G1 X-32.825 Y14.125 E30.68762
G1 X-32.574 Y13.039 E31.16816
G1 X-32.543 Y11.952 E31.63698
G1 X-32.755 Y10.866 E32.11402
G1 X-32.981 Y10.322 E32.36798
G1 X-33.307 Y9.779 E32.64103
G1 X-33.74 Y9.236 E32.94045
G1 X-35.36 Y7.606 E33.93121
G1 X-36.204 Y6.519 E34.52452
G1 X-36.716 Y5.433 E35.04214
G1 X-36.966 Y4.346 E35.52300
G1 X-36.998 Y3.26 E35.99140
G1 X-36.786 Y2.173 E36.46886
G1 X-36.56 Y1.63 E36.72243
G1 X-36.234 Y1.087 E36.99548
G1 X-35.801 Y.543 E37.29523
G1 X-34.181 Y-1.087 E38.28599
G1 X-33.337 Y-2.173 E38.87896
G1 X-32.825 Y-3.26 E39.39697
G1 X-32.574 Y-4.346 E39.87751
G1 X-32.543 Y-5.433 E40.34633
G1 X-32.755 Y-6.519 E40.82337
G1 X-32.981 Y-7.063 E41.07733
G1 X-33.307 Y-7.606 E41.35038
G1 X-33.74 Y-8.149 E41.64980
G1 X-35.36 Y-9.779 E42.64056
G1 X-36.204 Y-10.866 E43.23387
G1 X-36.716 Y-11.952 E43.75149
G1 X-36.966 Y-13.039 E44.23235
G1 X-36.998 Y-14.125 E44.70075
G1 X-36.786 Y-15.212 E45.17821
G1 X-36.56 Y-15.755 E45.43178
G1 X-36.234 Y-16.299 E45.70520
G1 X-35.801 Y-16.842 E46.00462
G1 X-34.181 Y-18.472 E46.99538
G1 X-33.419 Y-19.44 E47.52649
G1 X-24.112 Y-19.44 E51.53894
G1 X-24.288 Y-19.015 E51.73726
G1 X-24.614 Y-18.472 E52.01031
G1 X-25.047 Y-17.928 E52.31006
G1 X-26.667 Y-16.299 E53.30052
G1 X-27.511 Y-15.212 E53.89383
G1 X-28.023 Y-14.125 E54.41184
G1 X-28.274 Y-13.039 E54.89238
G1 X-28.305 Y-11.952 E55.36120
G1 X-28.093 Y-10.866 E55.83824
G1 X-27.867 Y-10.322 E56.09220
G1 X-27.541 Y-9.779 E56.36525
G1 X-27.108 Y-9.236 E56.66467
G1 X-25.488 Y-7.606 E57.65543
G1 X-24.644 Y-6.519 E58.24874
G1 X-24.132 Y-5.433 E58.76636
G1 X-23.882 Y-4.346 E59.24722
G1 X-23.85 Y-3.26 E59.71562
G1 X-24.063 Y-2.173 E60.19316
G1 X-24.288 Y-1.63 E60.44656
G1 X-24.614 Y-1.087 E60.71961
G1 X-25.047 Y-.543 E61.01936
G1 X-26.667 Y1.087 E62.01012
G1 X-27.511 Y2.173 E62.60309
G1 X-28.023 Y3.26 E63.12110
G1 X-28.274 Y4.346 E63.60164
G1 X-28.305 Y5.433 E64.07046
G1 X-28.093 Y6.519 E64.54750
G1 X-27.867 Y7.063 E64.80146
G1 X-27.541 Y7.606 E65.07451
G1 X-27.108 Y8.149 E65.37393
G1 X-25.488 Y9.779 E66.36469
G1 X-24.644 Y10.866 E66.95800
G1 X-24.132 Y11.952 E67.47562
G1 X-23.882 Y13.039 E67.95648
G1 X-23.85 Y14.125 E68.42488
G1 X-24.063 Y15.212 E68.90242
G1 X-24.288 Y15.755 E69.15582
G1 X-24.614 Y16.299 E69.42924
G1 X-25.047 Y16.842 E69.72866
G1 X-26.667 Y18.472 E70.71942
G1 X-27.429 Y19.44 E71.25053
G1 X-19.351 Y19.44 E76.47443
G1 X-19.175 Y19.015 E76.77191
G1 X-18.849 Y18.472 E77.18149
G1 X-18.416 Y17.928 E77.63111
G1 X-16.796 Y16.299 E79.11680
G1 X-16.33 Y15.755 E79.58002
G1 X-15.951 Y15.212 E80.00824
G1 X-15.44 Y14.125 E80.78498
G1 X-15.189 Y13.039 E81.50579
G1 X-15.158 Y11.952 E82.20902
G1 X-15.37 Y10.866 E82.92458
G1 X-15.596 Y10.322 E83.30552
G1 X-15.922 Y9.779 E83.71509
G1 X-16.355 Y9.236 E84.16423
G1 X-17.975 Y7.606 E85.65037
G1 X-18.819 Y6.519 E86.54033
G1 X-19.33 Y5.433 E87.31649
G1 X-19.581 Y4.346 E88.03793
G1 X-19.613 Y3.26 E88.74053
G1 X-19.4 Y2.173 E89.45684
G1 X-19.175 Y1.63 E89.83694
G1 X-18.849 Y1.087 E90.24652
G1 X-18.416 Y.543 E90.69614
G1 X-16.796 Y-1.087 E92.18228
G1 X-15.951 Y-2.173 E93.07213
G1 X-15.44 Y-3.26 E93.84887
G1 X-15.189 Y-4.346 E94.56968
G1 X-15.158 Y-5.433 E95.27291
G1 X-15.37 Y-6.519 E95.98847
G1 X-15.596 Y-7.063 E96.36941
G1 X-15.922 Y-7.606 E96.77899
G1 X-16.355 Y-8.149 E97.22812
G1 X-17.975 Y-9.779 E98.71426
G1 X-18.819 Y-10.866 E99.60422
G1 X-19.33 Y-11.952 E100.38038
G1 X-19.581 Y-13.039 E101.10182
G1 X-19.613 Y-14.125 E101.80442
G1 X-19.4 Y-15.212 E102.52073
G1 X-19.175 Y-15.755 E102.90083
G1 X-18.849 Y-16.299 E103.31096
G1 X-18.416 Y-16.842 E103.76009
G1 X-16.796 Y-18.472 E105.24623
G1 X-16.034 Y-19.44 E106.04290
G1 X-6.726 Y-19.44 E112.06222
G1 X-6.903 Y-19.015 E112.35994
G1 X-7.229 Y-18.472 E112.76951
G1 X-7.662 Y-17.928 E113.21913
G1 X-9.282 Y-16.299 E114.70482
G1 X-10.126 Y-15.212 E115.59479
G1 X-10.638 Y-14.125 E116.37180
G1 X-10.888 Y-13.039 E117.09247
G1 X-10.92 Y-11.952 E117.79571
G1 X-10.708 Y-10.866 E118.51127
G1 X-10.482 Y-10.322 E118.89221
G1 X-10.156 Y-9.779 E119.30178
G1 X-9.723 Y-9.236 E119.75091
G1 X-8.103 Y-7.606 E121.23705
G1 X-7.259 Y-6.519 E122.12702
G1 X-6.747 Y-5.433 E122.90345
G1 X-6.497 Y-4.346 E123.62474
G1 X-6.465 Y-3.26 E124.32734
G1 X-6.677 Y-2.173 E125.04353
G1 X-6.903 Y-1.63 E125.42388
G1 X-7.229 Y-1.087 E125.83346
G1 X-7.662 Y-.543 E126.28308
G1 X-9.282 Y1.087 E127.76922
G1 X-10.126 Y2.173 E128.65868
G1 X-10.638 Y3.26 E129.43569
G1 X-10.888 Y4.346 E130.15635
G1 X-10.92 Y5.433 E130.85960
G1 X-10.708 Y6.519 E131.57516
G1 X-10.482 Y7.063 E131.95610
G1 X-10.156 Y7.606 E132.36567
G1 X-9.723 Y8.149 E132.81480
G1 X-8.103 Y9.779 E134.30094
G1 X-7.259 Y10.866 E135.19091
G1 X-6.747 Y11.952 E135.96734
G1 X-6.497 Y13.039 E136.68863
G1 X-6.465 Y14.125 E137.39123
G1 X-6.677 Y15.212 E138.10742
G1 X-6.903 Y15.755 E138.48777
G1 X-7.229 Y16.299 E138.89790
G1 X-7.662 Y16.842 E139.34703
G1 X-9.282 Y18.472 E140.83317
G1 X-10.044 Y19.44 E141.62984
G1 X-1.966 Y19.44 E146.85374
G1 X-1.79 Y19.015 E147.15122
G1 X-1.464 Y18.472 E147.56079
G1 X-1.031 Y17.928 E148.01042
G1 X.589 Y16.299 E149.49611
G1 X1.055 Y15.755 E149.95932
G1 X1.434 Y15.212 E150.38754
G1 X1.945 Y14.125 E151.16429
G1 X2.196 Y13.039 E151.88510
G1 X2.227 Y11.952 E152.58833
G1 X2.015 Y10.866 E153.30389
G1 X1.79 Y10.322 E153.68459
G1 X1.464 Y9.779 E154.09416
G1 X1.031 Y9.236 E154.54329
G1 X-.589 Y7.606 E156.02943
G1 X-1.434 Y6.519 E156.91979
G1 X-1.945 Y5.433 E157.69595
G1 X-2.196 Y4.346 E158.41739
G1 X-2.227 Y3.26 E159.11997
G1 X-2.015 Y2.173 E159.83616
G1 X-1.79 Y1.63 E160.21626
G1 X-1.464 Y1.087 E160.62584
G1 X-1.031 Y.543 E161.07546
G1 X.589 Y-1.087 E162.56160
G1 X1.434 Y-2.173 E163.45145
G1 X1.945 Y-3.26 E164.22819
G1 X2.196 Y-4.346 E164.94900
G1 X2.227 Y-5.433 E165.65223
G1 X2.015 Y-6.519 E166.36779
G1 X1.79 Y-7.063 E166.74849
G1 X1.464 Y-7.606 E167.15807
G1 X1.031 Y-8.149 E167.60720
G1 X-.589 Y-9.779 E169.09334
G1 X-1.434 Y-10.866 E169.98369
G1 X-1.945 Y-11.952 E170.75985
G1 X-2.196 Y-13.039 E171.48129
G1 X-2.227 Y-14.125 E172.18388
G1 X-2.015 Y-15.212 E172.90007
G1 X-1.79 Y-15.755 E173.28017
G1 X-1.464 Y-16.299 E173.69030
G1 X-1.031 Y-16.842 E174.13943
G1 X.589 Y-18.472 E175.62557
G1 X1.351 Y-19.44 E176.42223
G1 X10.659 Y-19.44 E182.44155
G1 X10.482 Y-19.015 E182.73927
G1 X10.156 Y-18.472 E183.14885
G1 X9.723 Y-17.928 E183.59847
G1 X8.103 Y-16.299 E185.08416
G1 X7.259 Y-15.212 E185.97413
G1 X6.747 Y-14.125 E186.75114
G1 X6.497 Y-13.039 E187.47180
G1 X6.465 Y-11.952 E188.17505
G1 X6.677 Y-10.866 E188.89061
G1 X6.903 Y-10.322 E189.27155
G1 X7.229 Y-9.779 E189.68112
G1 X7.662 Y-9.236 E190.13025
G1 X9.282 Y-7.606 E191.61639
G1 X10.126 Y-6.519 E192.50636
G1 X10.638 Y-5.433 E193.28279
G1 X10.888 Y-4.346 E194.00408
G1 X10.92 Y-3.26 E194.70668
G1 X10.708 Y-2.173 E195.42287
G1 X10.482 Y-1.63 E195.80322
G1 X10.156 Y-1.087 E196.21280
G1 X9.723 Y-.543 E196.66242
G1 X8.103 Y1.087 E198.14856
G1 X7.259 Y2.173 E199.03802
G1 X6.747 Y3.26 E199.81503
G1 X6.497 Y4.346 E200.53569
G1 X6.465 Y5.433 E201.23894
G1 X6.677 Y6.519 E201.95450
G1 X6.903 Y7.063 E202.33544
G1 X7.229 Y7.606 E202.74501
G1 X7.662 Y8.149 E203.19414
G1 X9.282 Y9.779 E204.68028
G1 X10.126 Y10.866 E205.57025
G1 X10.638 Y11.952 E206.34668
G1 X10.888 Y13.039 E207.06797
G1 X10.92 Y14.125 E207.77057
G1 X10.708 Y15.212 E208.48676
G1 X10.482 Y15.755 E208.86711
G1 X10.156 Y16.299 E209.27724
G1 X9.723 Y16.842 E209.72637
G1 X8.103 Y18.472 E211.21251
G1 X7.341 Y19.44 E212.00918
G1 X15.419 Y19.44 E217.23308
G1 X15.596 Y19.015 E217.53080
G1 X15.922 Y18.472 E217.94037
G1 X16.355 Y17.928 E218.39000
G1 X17.975 Y16.299 E219.87569
G1 X18.441 Y15.755 E220.33890
G1 X18.819 Y15.212 E220.76676
G1 X19.33 Y14.125 E221.54351
G1 X19.581 Y13.039 E222.26432
G1 X19.613 Y11.952 E222.96756
G1 X19.4 Y10.866 E223.68324
G1 X19.175 Y10.322 E224.06394
G1 X18.849 Y9.779 E224.47352
G1 X18.416 Y9.236 E224.92265
G1 X16.796 Y7.606 E226.40879
G1 X15.952 Y6.519 E227.29875
G1 X15.44 Y5.433 E228.07518
G1 X15.189 Y4.346 E228.79662
G1 X15.158 Y3.26 E229.49921
G1 X15.37 Y2.173 E230.21540
G1 X15.596 Y1.63 E230.59575
G1 X15.922 Y1.087 E231.00533
G1 X16.355 Y.543 E231.45495
G1 X17.975 Y-1.087 E232.94109
G1 X18.819 Y-2.173 E233.83055
G1 X19.33 Y-3.26 E234.60729
G1 X19.581 Y-4.346 E235.32810
G1 X19.613 Y-5.433 E236.03135
G1 X19.4 Y-6.519 E236.74703
G1 X19.175 Y-7.063 E237.12773
G1 X18.849 Y-7.606 E237.53730
G1 X18.416 Y-8.149 E237.98643
G1 X16.796 Y-9.779 E239.47257
G1 X15.952 Y-10.866 E240.36254
G1 X15.44 Y-11.952 E241.13897
G1 X15.189 Y-13.039 E241.86041
G1 X15.158 Y-14.125 E242.56299
G1 X15.37 Y-15.212 E243.27918
G1 X15.596 Y-15.755 E243.65954
G1 X15.922 Y-16.299 E244.06967
G1 X16.355 Y-16.842 E244.51880
G1 X17.975 Y-18.472 E246.00494
G1 X18.736 Y-19.44 E246.80121
G1 X28.044 Y-19.44 E254.82697
G1 X27.867 Y-19.015 E255.22393
G1 X27.541 Y-18.472 E255.77003
G1 X27.108 Y-17.928 E256.36953
G1 X25.488 Y-16.299 E258.35045
G1 X24.644 Y-15.212 E259.53707
G1 X24.132 Y-14.125 E260.57309
G1 X23.882 Y-13.039 E261.53397
G1 X23.85 Y-11.952 E262.47163
G1 X24.063 Y-10.866 E263.42587
G1 X24.288 Y-10.322 E263.93347
G1 X24.614 Y-9.779 E264.47957
G1 X25.047 Y-9.236 E265.07841
G1 X26.667 Y-7.606 E267.05993
G1 X27.511 Y-6.519 E268.24655
G1 X28.023 Y-5.433 E269.28179
G1 X28.274 Y-4.346 E270.24371
G1 X28.305 Y-3.26 E271.18049
G1 X28.093 Y-2.173 E272.13541
G1 X27.867 Y-1.63 E272.64255
G1 X27.541 Y-1.087 E273.18865
G1 X27.108 Y-.543 E273.78815
G1 X25.488 Y1.087 E275.76967
G1 X24.644 Y2.173 E276.95561
G1 X24.132 Y3.26 E277.99163
G1 X23.882 Y4.346 E278.95251
G1 X23.85 Y5.433 E279.89017
G1 X24.063 Y6.519 E280.84441
G1 X24.288 Y7.063 E281.35201
G1 X24.614 Y7.606 E281.89811
G1 X25.047 Y8.149 E282.49695
G1 X26.667 Y9.779 E284.47847
G1 X27.511 Y10.866 E285.66509
G1 X28.023 Y11.952 E286.70033
G1 X28.274 Y13.039 E287.66225
G1 X28.305 Y14.125 E288.59903
G1 X28.093 Y15.212 E289.55395
G1 X27.867 Y15.755 E290.06109
G1 X27.541 Y16.299 E290.60793
G1 X27.108 Y16.842 E291.20677
G1 X25.488 Y18.472 E293.18829
G1 X24.726 Y19.44 E294.25051
G1 X32.804 Y19.44 E301.21571
G1 X32.981 Y19.015 E301.61267
G1 X33.307 Y18.472 E302.15877
G1 X33.74 Y17.928 E302.75827
G1 X35.36 Y16.299 E304.73919
G1 X35.826 Y15.755 E305.35681
G1 X36.204 Y15.212 E305.92729
G1 X36.716 Y14.125 E306.96331
G1 X36.966 Y13.039 E307.92419
G1 X36.998 Y11.952 E308.86185
G1 X36.786 Y10.866 E309.81593
G1 X36.56 Y10.322 E310.32385
G1 X36.234 Y9.779 E310.86995
G1 X35.801 Y9.236 E311.46879
G1 X34.181 Y7.606 E313.45031
G1 X33.337 Y6.519 E314.63693
G1 X32.825 Y5.433 E315.67217
G1 X32.575 Y4.346 E316.63389
G1 X32.543 Y3.26 E317.57069
G1 X32.755 Y2.173 E318.52561
G1 X32.981 Y1.63 E319.03275
G1 X33.307 Y1.087 E319.57885
G1 X33.74 Y.543 E320.17835
G1 X35.36 Y-1.087 E322.15987
G1 X36.204 Y-2.173 E323.34581
G1 X36.716 Y-3.26 E324.38183
G1 X36.966 Y-4.346 E325.34271
G1 X36.998 Y-5.433 E326.28037
G1 X36.786 Y-6.519 E327.23445
G1 X36.56 Y-7.063 E327.74237
G1 X36.234 Y-7.606 E328.28847
G1 X35.801 Y-8.149 E328.88731
G1 X34.181 Y-9.779 E330.86883
G1 X33.337 Y-10.866 E332.05545
G1 X32.825 Y-11.952 E333.09069
G1 X32.575 Y-13.039 E334.05241
G1 X32.543 Y-14.125 E334.98921
G1 X32.755 Y-15.212 E335.94413
G1 X32.981 Y-15.755 E336.45127
G1 X33.307 Y-16.299 E336.99811
G1 X33.74 Y-16.842 E337.59695
G1 X35.36 Y-18.472 E339.57847
G1 X36.122 Y-19.44 E340.64069
G1 X45.429 Y-19.44 E348.66559
G1 X45.253 Y-19.015 E349.06223
G1 X44.927 Y-18.472 E349.60833
G1 X44.494 Y-17.928 E350.20783
G1 X42.873 Y-16.299 E352.18935
G1 X42.029 Y-15.212 E353.37597
G1 X41.518 Y-14.125 E354.41163
G1 X41.267 Y-13.039 E355.37271
G1 X41.236 Y-11.952 E356.31035
G1 X41.448 Y-10.866 E357.26443
G1 X41.673 Y-10.322 E357.77203
G1 X41.999 Y-9.779 E358.31813
G1 X42.432 Y-9.236 E358.91697
G1 X44.052 Y-7.606 E360.89849
G1 X44.897 Y-6.519 E362.08563
G1 X45.408 Y-5.433 E363.12051
G1 X45.659 Y-4.346 E364.08243
G1 X45.69 Y-3.26 E365.01921
G1 X45.478 Y-2.173 E365.97413
G1 X45.253 Y-1.63 E366.48093
G1 X44.927 Y-1.087 E367.02703
G1 X44.494 Y-.543 E367.62653
G1 X42.873 Y1.087 E369.60867
G1 X42.029 Y2.173 E370.79461
G1 X41.518 Y3.26 E371.83027
G1 X41.267 Y4.346 E372.79135
G1 X41.236 Y5.433 E373.72899
G1 X41.448 Y6.519 E374.68307
G1 X41.673 Y7.063 E375.19067
G1 X41.999 Y7.606 E375.73677
G1 X42.432 Y8.149 E376.33561
G1 X44.052 Y9.779 E378.31713
G1 X44.897 Y10.866 E379.50427
G1 X45.408 Y11.952 E380.53915
G1 X45.659 Y13.039 E381.50107
G1 X45.69 Y14.125 E382.43785
G1 X45.478 Y15.212 E383.39277
G1 X45.253 Y15.755 E383.89957
G1 X44.927 Y16.299 E384.44641
G1 X44.494 Y16.842 E385.04525
G1 X42.873 Y18.472 E387.02739
G1 X42.112 Y19.44 E388.08909
G1 X50.189 Y19.44 E395.05343
G1 X50.366 Y19.015 E395.45039
G1 X50.692 Y18.472 E395.99649
G1 X51.125 Y17.928 E396.59599
G1 X52.745 Y16.299 E398.57691
G1 X53.211 Y15.755 E399.19453
G1 X53.882 Y14.669 E400.29525
G1 X54.101 Y14.125 E400.80089
G1 X54.351 Y13.039 E401.76177
G1 X54.383 Y11.952 E402.69943
G1 X54.171 Y10.866 E403.65351
G1 X53.945 Y10.322 E404.16143
G1 X53.619 Y9.779 E404.70753
G1 X53.186 Y9.236 E405.30637
G1 X51.566 Y7.606 E407.28789
G1 X50.722 Y6.519 E408.47451
G1 X50.21 Y5.433 E409.50975
G1 X49.96 Y4.346 E410.47147
G1 X49.928 Y3.26 E411.40827
G1 X50.14 Y2.173 E412.36319
G1 X50.366 Y1.63 E412.87033
G1 X50.692 Y1.087 E413.41643
