; generated by PrusaSlicer 2.9.0 on 2025-02-10 at 15:40:57 UTC

; 

; external perimeters extrusion width = 1.12mm
; perimeters extrusion width = 1.12mm
; infill extrusion width = 1.12mm
; solid infill extrusion width = 1.12mm
; top infill extrusion width = 1.00mm
; first layer extrusion width = 1.05mm

M190 S25 ; set bed temperature and wait for it to be reached
;TYPE:Custom
G28 H ; home all axes
G92 E0 ; zero extruder
M6
M220 S100
M221 S100
M104 S200 T0
M104 S160 T1

M109 S200 T0
M109 S160 T1
G21 ; set units to millimeters
G90 ; use absolute coordinates
M82 ; use absolute distances for extrusion
G92 E0
M107
;LAYER_CHANGE
;Z:0.5
;HEIGHT:0.5
G1 E-3.00000 F2400
G92 E0
G1 Z.5 F7800
G1 X0 Y-25.471
G1 E3.00000 F2400
;TYPE:Skirt/Brim
;WIDTH:1.05
G1 F1500
G1 X60 Y-25.471 E54.73458
G1 X62.045 Y-25.075 E56.53062
G1 X63.793 Y-23.943 E58.32626
G1 X64.992 Y-22.24 E60.12208
G1 X65.471 Y-20 E62.09718
G1 X65.471 Y20 E96.58690
G1 X65.075 Y22.045 E98.38294
G1 X63.943 Y23.793 E100.17858
G1 X62.24 Y24.992 E101.97440
G1 X60 Y25.471 E103.94950
G1 X-60 Y25.471 E166.03101
G1 X-62.045 Y25.075 E166.92903
G1 X-63.793 Y23.943 E167.82685
G1 X-64.992 Y22.24 E168.72476
G1 X-65.471 Y20 E169.71231
G1 X-65.471 Y-20 E186.95717
G1 X-65.075 Y-22.045 E187.85519
G1 X-63.943 Y-23.793 E188.75301
G1 X-62.24 Y-24.992 E189.65092
G1 X-60 Y-25.471 E190.63847
G1 X-.15 Y-25.471 E216.44110
G1 E214.44110 F2400
G92 E0
G1 X-.15 Y-25.471 F7800
G92 E0
G1 X-47.573 Y-19.44
G1 E2.00000 F2400
;TYPE:Internal infill
G1 F1500
G1 X-41.497 Y-19.44 E4.61949
G1 X-41.673 Y-19.015 E4.81781
G1 X-41.999 Y-18.472 E5.09086
G1 X-42.432 Y-17.928 E5.39061
G1 X-44.052 Y-16.299 E6.38107
G1 X-44.897 Y-15.212 E6.97464
G1 X-45.408 Y-14.125 E7.49247
G1 X-45.659 Y-13.039 E7.97301
G1 X-45.69 Y-11.952 E8.44183
G1 X-45.478 Y-10.866 E8.91887
G1 X-45.253 Y-10.322 E9.17267
G1 X-44.927 Y-9.779 E9.44572
G1 X-44.494 Y-9.236 E9.74514
G1 X-42.873 Y-7.606 E10.73621
G1 X-42.029 Y-6.519 E11.32952
G1 X-41.518 Y-5.433 E11.84696
G1 X-41.267 Y-4.346 E12.32792
G1 X-41.235 Y-3.26 E12.79632
G1 X-41.448 Y-2.173 E13.27386
G1 X-41.673 Y-1.63 E13.52726
G1 X-41.999 Y-1.087 E13.80031
G1 X-42.432 Y-.543 E14.10006
G1 X-44.052 Y1.087 E15.09082
G1 X-44.897 Y2.173 E15.68405
G1 X-45.408 Y3.26 E16.20188
G1 X-45.659 Y4.346 E16.68242
G1 X-45.69 Y5.433 E17.15124
G1 X-45.478 Y6.519 E17.62828
G1 X-45.253 Y7.063 E17.88208
G1 X-44.927 Y7.606 E18.15513
G1 X-44.494 Y8.149 E18.45455
G1 X-42.873 Y9.779 E19.44562
G1 X-42.029 Y10.866 E20.03893
G1 X-41.518 Y11.952 E20.55637
G1 X-41.267 Y13.039 E21.03733
G1 X-41.235 Y14.125 E21.50573
G1 X-41.448 Y15.212 E21.98327
G1 X-41.673 Y15.755 E22.23667
G1 X-41.999 Y16.299 E22.51009
G1 X-42.432 Y16.842 E22.80951
G1 X-44.052 Y18.472 E23.80027
G1 X-44.814 Y19.44 E24.33138
G1 X-36.736 Y19.44 E27.81398
G1 X-36.56 Y19.015 E28.01230
G1 X-36.234 Y18.472 E28.28535
G1 X-35.801 Y17.928 E28.58510
G1 X-34.181 Y16.299 E29.57556
G1 X-33.715 Y15.755 E29.88437
G1 X-33.337 Y15.212 E30.16961
G1 X-32.825 Y14.125 E30.68762
G1 X-32.574 Y13.039 E31.16816
G1 X-32.543 Y11.952 E31.63698
G1 X-32.755 Y10.866 E32.11402
G1 X-32.981 Y10.322 E32.36798
G1 X-33.307 Y9.779 E32.64103
G1 X-33.74 Y9.236 E32.94045
G1 X-35.36 Y7.606 E33.93121
G1 X-36.204 Y6.519 E34.52452
G1 X-36.716 Y5.433 E35.04214
G1 X-36.966 Y4.346 E35.52300
G1 X-36.998 Y3.26 E35.99140
G1 X-36.786 Y2.173 E36.46886
G1 X-36.56 Y1.63 E36.72243
G1 X-36.234 Y1.087 E36.99548
G1 X-35.801 Y.543 E37.29523
G1 X-34.181 Y-1.087 E38.28599
G1 X-33.337 Y-2.173 E38.87896
G1 X-32.825 Y-3.26 E39.39697
G1 X-32.574 Y-4.346 E39.87751
G1 X-32.543 Y-5.433 E40.34633
G1 X-32.755 Y-6.519 E40.82337
G1 X-32.981 Y-7.063 E41.07733
G1 X-33.307 Y-7.606 E41.35038
G1 X-33.74 Y-8.149 E41.64980
G1 X-35.36 Y-9.779 E42.64056
G1 X-36.204 Y-10.866 E43.23387
G1 X-36.716 Y-11.952 E43.75149
G1 X-36.966 Y-13.039 E44.23235
G1 X-36.998 Y-14.125 E44.70075
G1 X-36.786 Y-15.212 E45.17821
G1 X-36.56 Y-15.755 E45.43178
G1 X-36.234 Y-16.299 E45.70520
G1 X-35.801 Y-16.842 E46.00462
G1 X-34.181 Y-18.472 E46.99538
G1 X-33.419 Y-19.44 E47.52649
G1 X-24.112 Y-19.44 E51.53894
G1 X-24.288 Y-19.015 E51.73726
G1 X-24.614 Y-18.472 E52.01031
G1 X-25.047 Y-17.928 E52.31006
G1 X-26.667 Y-16.299 E53.30052
G1 X-27.511 Y-15.212 E53.89383
G1 X-28.023 Y-14.125 E54.41184
G1 X-28.274 Y-13.039 E54.89238
G1 X-28.305 Y-11.952 E55.36120
G1 X-28.093 Y-10.866 E55.83824
G1 X-27.867 Y-10.322 E56.09220
G1 X-27.541 Y-9.779 E56.36525
G1 X-27.108 Y-9.236 E56.66467
G1 X-25.488 Y-7.606 E57.65543
G1 X-24.644 Y-6.519 E58.24874
G1 X-24.132 Y-5.433 E58.76636
G1 X-23.882 Y-4.346 E59.24722
G1 X-23.85 Y-3.26 E59.71562
G1 X-24.063 Y-2.173 E60.19316
G1 X-24.288 Y-1.63 E60.44656
G1 X-24.614 Y-1.087 E60.71961
G1 X-25.047 Y-.543 E61.01936
G1 X-26.667 Y1.087 E62.01012
G1 X-27.511 Y2.173 E62.60309
G1 X-28.023 Y3.26 E63.12110
G1 X-28.274 Y4.346 E63.60164
G1 X-28.305 Y5.433 E64.07046
G1 X-28.093 Y6.519 E64.54750
G1 X-27.867 Y7.063 E64.80146
G1 X-27.541 Y7.606 E65.07451
G1 X-27.108 Y8.149 E65.37393
G1 X-25.488 Y9.779 E66.36469
G1 X-24.644 Y10.866 E66.95800
G1 X-24.132 Y11.952 E67.47562
G1 X-23.882 Y13.039 E67.95648
G1 X-23.85 Y14.125 E68.42488
G1 X-24.063 Y15.212 E68.90242
G1 X-24.288 Y15.755 E69.15582
G1 X-24.614 Y16.299 E69.42924
G1 X-25.047 Y16.842 E69.72866
G1 X-26.667 Y18.472 E70.71942
G1 X-27.429 Y19.44 E71.25053
G1 X-19.351 Y19.44 E74.73313
G1 X-19.175 Y19.015 E74.93145
G1 X-18.849 Y18.472 E75.20450
G1 X-18.416 Y17.928 E75.50425
G1 X-16.796 Y16.299 E76.49471
G1 X-16.33 Y15.755 E76.80352
G1 X-15.951 Y15.212 E77.08900
G1 X-15.44 Y14.125 E77.60683
G1 X-15.189 Y13.039 E78.08737
G1 X-15.158 Y11.952 E78.55619
G1 X-15.37 Y10.866 E79.03323
G1 X-15.596 Y10.322 E79.28719
G1 X-15.922 Y9.779 E79.56024
G1 X-16.355 Y9.236 E79.85966
G1 X-17.975 Y7.606 E80.85042
G1 X-18.819 Y6.519 E81.44373
G1 X-19.33 Y5.433 E81.96117
G1 X-19.581 Y4.346 E82.44213
G1 X-19.613 Y3.26 E82.91053
G1 X-19.4 Y2.173 E83.38807
G1 X-19.175 Y1.63 E83.64147
G1 X-18.849 Y1.087 E83.91452
G1 X-18.416 Y.543 E84.21427
G1 X-16.796 Y-1.087 E85.20503
G1 X-15.951 Y-2.173 E85.79826
G1 X-15.44 Y-3.26 E86.31609
G1 X-15.189 Y-4.346 E86.79663
G1 X-15.158 Y-5.433 E87.26545
G1 X-15.37 Y-6.519 E87.74249
G1 X-15.596 Y-7.063 E87.99645
G1 X-15.922 Y-7.606 E88.26950
G1 X-16.355 Y-8.149 E88.56892
G1 X-17.975 Y-9.779 E89.55968
G1 X-18.819 Y-10.866 E90.15299
G1 X-19.33 Y-11.952 E90.67043
G1 X-19.581 Y-13.039 E91.15139
G1 X-19.613 Y-14.125 E91.61979
G1 X-19.4 Y-15.212 E92.09733
G1 X-19.175 Y-15.755 E92.35073
G1 X-18.849 Y-16.299 E92.62415
G1 X-18.416 Y-16.842 E92.92357
G1 X-16.796 Y-18.472 E93.91433
G1 X-16.034 Y-19.44 E94.44544
G1 X-6.726 Y-19.44 E98.45832
G1 X-6.903 Y-19.015 E98.65680
G1 X-7.229 Y-18.472 E98.92985
G1 X-7.662 Y-17.928 E99.22960
G1 X-9.282 Y-16.299 E100.22006
G1 X-10.126 Y-15.212 E100.81337
G1 X-10.638 Y-14.125 E101.33138
G1 X-10.888 Y-13.039 E101.81182
G1 X-10.92 Y-11.952 E102.28065
G1 X-10.708 Y-10.866 E102.75769
G1 X-10.482 Y-10.322 E103.01165
G1 X-10.156 Y-9.779 E103.28470
G1 X-9.723 Y-9.236 E103.58412
G1 X-8.103 Y-7.606 E104.57488
G1 X-7.259 Y-6.519 E105.16819
G1 X-6.747 Y-5.433 E105.68581
G1 X-6.497 Y-4.346 E106.16667
G1 X-6.465 Y-3.26 E106.86927
G1 X-6.677 Y-2.173 E107.34673
G1 X-6.903 Y-1.63 E107.60030
G1 X-7.229 Y-1.087 E107.87335
G1 X-7.662 Y-.543 E108.17310
G1 X-9.282 Y1.087 E109.16386
G1 X-10.126 Y2.173 E109.75683
G1 X-10.638 Y3.26 E110.27484
G1 X-10.888 Y4.346 E110.75528
G1 X-10.92 Y5.433 E111.22411
G1 X-10.708 Y6.519 E111.70115
G1 X-10.482 Y7.063 E111.95511
G1 X-10.156 Y7.606 E112.22816
G1 X-9.723 Y8.149 E112.52758
G1 X-8.103 Y9.779 E113.51834
G1 X-7.259 Y10.866 E114.11165
G1 X-6.747 Y11.952 E114.62927
G1 X-6.497 Y13.039 E115.11013
G1 X-6.465 Y14.125 E115.81273
G1 X-6.677 Y15.212 E116.29019
G1 X-6.903 Y15.755 E116.54376
G1 X-7.229 Y16.299 E116.81718
G1 X-7.662 Y16.842 E117.11660
G1 X-9.282 Y18.472 E118.10736
G1 X-10.044 Y19.44 E118.63847
G1 X-1.966 Y19.44 E122.12107
G1 X-1.79 Y19.015 E122.41855
G1 X-1.464 Y18.472 E122.82812
G1 X-1.031 Y17.928 E123.27775
G1 X.589 Y16.299 E124.76344
G1 X1.055 Y15.755 E125.22666
G1 X1.434 Y15.212 E125.65488
G1 X1.945 Y14.125 E126.43162
G1 X2.196 Y13.039 E127.15243
G1 X2.227 Y11.952 E127.85566
G1 X2.015 Y10.866 E128.57122
G1 X1.79 Y10.322 E128.95192
G1 X1.464 Y9.779 E129.36149
G1 X1.031 Y9.236 E129.81062
G1 X-.589 Y7.606 E131.29676
G1 X-1.434 Y6.519 E132.18712
G1 X-1.945 Y5.433 E132.96328
G1 X-2.196 Y4.346 E133.68472
G1 X-2.227 Y3.26 E134.38731
G1 X-2.015 Y2.173 E135.10350
G1 X-1.79 Y1.63 E135.48360
G1 X-1.464 Y1.087 E135.89317
G1 X-1.031 Y.543 E136.34279
G1 X.589 Y-1.087 E137.82894
G1 X1.434 Y-2.173 E138.71878
G1 X1.945 Y-3.26 E139.49552
G1 X2.196 Y-4.346 E140.21634
G1 X2.227 Y-5.433 E140.91957
G1 X2.015 Y-6.519 E141.63512
G1 X1.79 Y-7.063 E142.01583
G1 X1.464 Y-7.606 E142.42540
G1 X1.031 Y-8.149 E142.87453
G1 X-.589 Y-9.779 E144.36067
G1 X-1.434 Y-10.866 E145.25102
G1 X-1.945 Y-11.952 E146.02718
G1 X-2.196 Y-13.039 E146.74863
G1 X-2.227 Y-14.125 E147.45121
G1 X-2.015 Y-15.212 E148.16740
G1 X-1.79 Y-15.755 E148.54750
G1 X-1.464 Y-16.299 E148.95763
G1 X-1.031 Y-16.842 E149.40676
G1 X.589 Y-18.472 E150.89290
G1 X1.351 Y-19.44 E151.68957
G1 X10.659 Y-19.44 E155.70245
G1 X10.482 Y-19.015 E155.90093
G1 X10.156 Y-18.472 E156.17398
G1 X9.723 Y-17.928 E156.47373
G1 X8.103 Y-16.299 E157.46419
G1 X7.259 Y-15.212 E158.05750
G1 X6.747 Y-14.125 E158.57551
G1 X6.497 Y-13.039 E159.05595
G1 X6.465 Y-11.952 E159.75919
G1 X6.677 Y-10.866 E160.23623
G1 X6.903 Y-10.322 E160.49019
G1 X7.229 Y-9.779 E160.76324
G1 X7.662 Y-9.236 E161.06266
G1 X9.282 Y-7.606 E162.05342
G1 X10.126 Y-6.519 E162.64673
G1 X10.638 Y-5.433 E163.16435
G1 X10.888 Y-4.346 E163.64521
G1 X10.92 Y-3.26 E164.11361
G1 X10.708 Y-2.173 E164.59107
G1 X10.482 Y-1.63 E164.84464
G1 X10.156 Y-1.087 E165.11769
G1 X9.723 Y-.543 E165.41744
G1 X8.103 Y1.087 E166.40820
G1 X7.259 Y2.173 E167.00117
G1 X6.747 Y3.26 E167.51918
G1 X6.497 Y4.346 E167.99962
G1 X6.465 Y5.433 E168.70286
G1 X6.677 Y6.519 E169.17990
G1 X6.903 Y7.063 E169.43386
G1 X7.229 Y7.606 E169.70691
G1 X7.662 Y8.149 E170.00633
G1 X9.282 Y9.779 E170.99709
G1 X10.126 Y10.866 E171.59040
G1 X10.638 Y11.952 E172.10802
G1 X10.888 Y13.039 E172.58888
G1 X10.92 Y14.125 E173.05728
G1 X10.708 Y15.212 E173.53474
G1 X10.482 Y15.755 E173.78831
G1 X10.156 Y16.299 E174.06173
G1 X9.723 Y16.842 E174.36115
G1 X8.103 Y18.472 E175.35191
G1 X7.341 Y19.44 E175.88302
G1 X15.419 Y19.44 E179.36562
G1 X15.596 Y19.015 E179.56410
G1 X15.922 Y18.472 E179.83715
G1 X16.355 Y17.928 E180.13690
G1 X17.975 Y16.299 E181.12736
G1 X18.441 Y15.755 E181.43617
G1 X18.819 Y15.212 E181.72141
G1 X19.33 Y14.125 E182.23924
G1 X19.581 Y13.039 E182.71978
G1 X19.613 Y11.952 E183.18861
G1 X19.4 Y10.866 E183.66573
G1 X19.175 Y10.322 E183.91953
G1 X18.849 Y9.779 E184.19258
G1 X18.416 Y9.236 E184.49200
G1 X16.796 Y7.606 E185.48276
G1 X15.952 Y6.519 E186.07607
G1 X15.44 Y5.433 E186.59369
G1 X15.189 Y4.346 E187.07465
G1 X15.158 Y3.26 E187.54304
G1 X15.37 Y2.173 E188.02050
G1 X15.596 Y1.63 E188.27407
G1 X15.922 Y1.087 E188.54712
G1 X16.355 Y.543 E188.84687
G1 X17.975 Y-1.087 E189.83763
G1 X18.819 Y-2.173 E190.43060
G1 X19.33 Y-3.26 E190.94843
G1 X19.581 Y-4.346 E191.42897
G1 X19.613 Y-5.433 E191.89780
G1 X19.4 Y-6.519 E192.37492
G1 X19.175 Y-7.063 E192.62872
G1 X18.849 Y-7.606 E192.90177
G1 X18.416 Y-8.149 E193.20119
G1 X16.796 Y-9.779 E194.19195
G1 X15.952 Y-10.866 E194.78526
G1 X15.44 Y-11.952 E195.30288
G1 X15.189 Y-13.039 E195.78384
G1 X15.158 Y-14.125 E196.25223
G1 X15.37 Y-15.212 E196.72969
G1 X15.596 Y-15.755 E196.98326
G1 X15.922 Y-16.299 E197.25668
G1 X16.355 Y-16.842 E197.55610
G1 X17.975 Y-18.472 E198.54686
G1 X18.736 Y-19.44 E199.07771
G1 X28.044 Y-19.44 E203.09059
G1 X27.867 Y-19.015 E203.28907
G1 X27.541 Y-18.472 E203.56212
G1 X27.108 Y-17.928 E203.86187
G1 X25.488 Y-16.299 E204.85233
G1 X24.644 Y-15.212 E205.44564
G1 X24.132 Y-14.125 E205.96365
G1 X23.882 Y-13.039 E206.44409
G1 X23.85 Y-11.952 E206.91292
G1 X24.063 Y-10.866 E207.39004
G1 X24.288 Y-10.322 E207.64384
G1 X24.614 Y-9.779 E207.91689
G1 X25.047 Y-9.236 E208.21631
G1 X26.667 Y-7.606 E209.20707
G1 X27.511 Y-6.519 E209.80038
G1 X28.023 Y-5.433 E210.52505
G1 X28.274 Y-4.346 E211.48697
G1 X28.305 Y-3.26 E212.42375
G1 X28.093 Y-2.173 E213.37867
G1 X27.867 Y-1.63 E213.88581
G1 X27.541 Y-1.087 E214.43191
G1 X27.108 Y-.543 E214.91151
G1 X25.488 Y1.087 E215.90227
G1 X24.644 Y2.173 E216.49524
G1 X24.132 Y3.26 E217.01325
G1 X23.882 Y4.346 E217.49369
G1 X23.85 Y5.433 E217.96252
G1 X24.063 Y6.519 E218.43964
G1 X24.288 Y7.063 E218.69344
G1 X24.614 Y7.606 E218.96649
G1 X25.047 Y8.149 E219.26591
G1 X26.667 Y9.779 E220.25667
G1 X27.511 Y10.866 E220.84998
G1 X28.023 Y11.952 E221.36760
G1 X28.274 Y13.039 E221.84856
G1 X28.305 Y14.125 E222.31695
G1 X28.093 Y15.212 E222.79441
G1 X27.867 Y15.755 E223.04798
G1 X27.541 Y16.299 E223.32140
G1 X27.108 Y16.842 E223.62082
G1 X25.488 Y18.472 E224.61158
G1 X24.726 Y19.44 E225.14269
G1 X32.804 Y19.44 E228.62529
G1 X32.981 Y19.015 E228.82377
G1 X33.307 Y18.472 E229.09682
G1 X33.74 Y17.928 E229.57642
G1 X35.36 Y16.299 E231.55734
G1 X35.826 Y15.755 E232.17496
G1 X36.204 Y15.212 E232.74544
G1 X36.716 Y14.125 E233.78146
G1 X36.966 Y13.039 E234.74234
G1 X36.998 Y11.952 E235.68000
G1 X36.786 Y10.866 E236.63408
G1 X36.56 Y10.322 E237.14200
G1 X36.234 Y9.779 E237.68810
G1 X35.801 Y9.236 E238.28694
G1 X34.181 Y7.606 E240.26846
G1 X33.337 Y6.519 E241.45508
G1 X32.825 Y5.433 E242.49032
G1 X32.575 Y4.346 E243.45204
G1 X32.543 Y3.26 E244.38884
G1 X32.755 Y2.173 E245.34376
G1 X32.981 Y1.63 E245.85090
G1 X33.307 Y1.087 E246.39700
G1 X33.74 Y.543 E246.99650
G1 X35.36 Y-1.087 E248.97802
G1 X36.204 Y-2.173 E250.16396
G1 X36.716 Y-3.26 E251.19998
G1 X36.966 Y-4.346 E252.16086
G1 X36.998 Y-5.433 E253.09852
G1 X36.786 Y-6.519 E254.05260
G1 X36.56 Y-7.063 E254.56052
G1 X36.234 Y-7.606 E255.10662
G1 X35.801 Y-8.149 E255.70546
G1 X34.181 Y-9.779 E257.68698
G1 X33.337 Y-10.866 E258.87360
G1 X32.825 Y-11.952 E259.90884
G1 X32.575 Y-13.039 E260.87056
G1 X32.543 Y-14.125 E261.80736
G1 X32.755 Y-15.212 E262.76228
G1 X32.981 Y-15.755 E263.26942
G1 X33.307 Y-16.299 E263.81626
G1 X33.74 Y-16.842 E264.41510
G1 X35.36 Y-18.472 E266.39662
G1 X36.122 Y-19.44 E267.45884
G1 X45.429 Y-19.44 E275.48374
G1 X45.253 Y-19.015 E275.88038
G1 X44.927 Y-18.472 E276.42648
G1 X44.494 Y-17.928 E277.02598
G1 X42.873 Y-16.299 E279.00750
G1 X42.029 Y-15.212 E280.19412
G1 X41.518 Y-14.125 E281.22978
G1 X41.267 Y-13.039 E282.19086
G1 X41.236 Y-11.952 E283.12850
G1 X41.448 Y-10.866 E284.08258
G1 X41.673 Y-10.322 E284.59018
G1 X41.999 Y-9.779 E285.13628
G1 X42.432 Y-9.236 E285.73512
G1 X44.052 Y-7.606 E287.71664
G1 X44.897 Y-6.519 E288.90378
G1 X45.408 Y-5.433 E289.93866
G1 X45.659 Y-4.346 E290.90058
G1 X45.69 Y-3.26 E291.83736
G1 X45.478 Y-2.173 E292.79228
G1 X45.253 Y-1.63 E293.29908
G1 X44.927 Y-1.087 E293.84518
G1 X44.494 Y-.543 E294.44468
G1 X42.873 Y1.087 E296.42682
G1 X42.029 Y2.173 E297.61276
G1 X41.518 Y3.26 E298.64842
G1 X41.267 Y4.346 E299.60950
G1 X41.236 Y5.433 E300.54714
G1 X41.448 Y6.519 E301.50122
G1 X41.673 Y7.063 E302.00882
G1 X41.999 Y7.606 E302.55492
G1 X42.432 Y8.149 E303.15376
G1 X44.052 Y9.779 E305.13528
G1 X44.897 Y10.866 E306.32242
G1 X45.408 Y11.952 E307.35730
G1 X45.659 Y13.039 E308.31922
G1 X45.69 Y14.125 E309.25600
G1 X45.478 Y15.212 E310.21092
G1 X45.253 Y15.755 E310.71772
G1 X44.927 Y16.299 E311.26456
G1 X44.494 Y16.842 E311.86340
G1 X42.873 Y18.472 E313.84554
G1 X42.112 Y19.44 E314.90724
G1 X50.189 Y19.44 E321.87158
G1 X50.366 Y19.015 E322.26854
G1 X50.692 Y18.472 E322.81464
G1 X51.125 Y17.928 E323.41414
G1 X52.745 Y16.299 E325.39506
G1 X53.211 Y15.755 E326.01268
G1 X53.882 Y14.669 E327.11340
G1 X54.101 Y14.125 E327.61904
G1 X54.351 Y13.039 E328.57992
G1 X54.383 Y11.952 E329.51758
G1 X54.171 Y10.866 E330.47166
G1 X53.945 Y10.322 E330.97958
G1 X53.619 Y9.779 E331.52568
G1 X53.186 Y9.236 E332.12452
G1 X51.566 Y7.606 E334.10604
G1 X50.722 Y6.519 E335.29266
G1 X50.21 Y5.433 E336.32790
G1 X49.96 Y4.346 E337.28962
G1 X49.928 Y3.26 E338.22642
G1 X50.14 Y2.173 E339.18134
G1 X50.366 Y1.63 E339.68848
G1 X50.692 Y1.087 E340.23458
