; generated by PrusaSlicer 2.9.0 on 2025-02-10 at 15:40:57 UTC

; 

; external perimeters extrusion width = 1.12mm
; perimeters extrusion width = 1.12mm
; infill extrusion width = 1.12mm
; solid infill extrusion width = 1.12mm
; top infill extrusion width = 1.00mm
; first layer extrusion width = 1.05mm

M190 S25 ; set bed temperature and wait for it to be reached
;TYPE:Custom
G28 H ; home all axes
G92 E0 ; zero extruder
M6
M220 S100
M221 S100
M104 S200 T0
M104 S160 T1

M109 S200 T0
M109 S160 T1
G21 ; set units to millimeters
G90 ; use absolute coordinates
M82 ; use absolute distances for extrusion
G92 E0
M107
;LAYER_CHANGE
;Z:0.5
;HEIGHT:0.5
G1 E-6.00000 F2400
G92 E0
G1 Z.5 F7800
G1 X0 Y-25.471
G1 E6.00000 F2400
;TYPE:Skirt/Brim
;WIDTH:1.05
G1 F1500
G1 X60 Y-25.471 E31.86729
G1 X62.045 Y-25.075 E32.76531
G1 X63.793 Y-23.943 E33.66313
G1 X64.992 Y-22.24 E34.56104
G1 X65.471 Y-20 E35.54859
G1 X65.471 Y20 E52.79345
G1 X65.075 Y22.045 E53.69147
G1 X63.943 Y23.793 E54.58929
G1 X62.24 Y24.992 E55.48720
G1 X60 Y25.471 E56.47475
G1 X-60 Y25.471 E113.38280
G1 X-62.045 Y25.075 E114.28082
G1 X-63.793 Y23.943 E115.17864
G1 X-64.992 Y22.24 E116.07655
G1 X-65.471 Y20 E117.06410
G1 X-65.471 Y-20 E134.30896
G1 X-65.075 Y-22.045 E135.20698
G1 X-63.943 Y-23.793 E136.10480
G1 X-62.24 Y-24.992 E137.00271
G1 X-60 Y-25.471 E137.99026
G1 X-.15 Y-25.471 E166.37315
G1 E163.37315 F2400
G92 E0
G1 X-.15 Y-25.471 F7800
G92 E0
G1 X-47.573 Y-19.44
G1 E3.00000 F2400
;TYPE:Internal infill
G1 F1500
G1 X-41.497 Y-19.44 E6.14339
G1 X-41.673 Y-19.015 E6.34171
G1 X-41.999 Y-18.472 E6.61476
G1 X-42.432 Y-17.928 E6.91451
G1 X-44.052 Y-16.299 E7.90497
G1 X-44.897 Y-15.212 E8.49854
G1 X-45.408 Y-14.125 E9.01637
G1 X-45.659 Y-13.039 E9.49691
G1 X-45.69 Y-11.952 E9.96573
G1 X-45.478 Y-10.866 E10.44277
G1 X-45.253 Y-10.322 E10.69657
G1 X-44.927 Y-9.779 E10.96962
G1 X-44.494 Y-9.236 E11.26904
G1 X-42.873 Y-7.606 E12.26011
G1 X-42.029 Y-6.519 E12.85342
G1 X-41.518 Y-5.433 E13.37086
G1 X-41.267 Y-4.346 E13.85182
G1 X-41.235 Y-3.26 E14.32022
G1 X-41.448 Y-2.173 E14.79776
G1 X-41.673 Y-1.63 E15.05116
G1 X-41.999 Y-1.087 E15.32421
G1 X-42.432 Y-.543 E15.62396
G1 X-44.052 Y1.087 E16.61472
G1 X-44.897 Y2.173 E17.20795
G1 X-45.408 Y3.26 E17.72578
G1 X-45.659 Y4.346 E18.20632
G1 X-45.69 Y5.433 E18.67514
G1 X-45.478 Y6.519 E19.15218
G1 X-45.253 Y7.063 E19.40598
G1 X-44.927 Y7.606 E19.67903
G1 X-44.494 Y8.149 E19.97845
G1 X-42.873 Y9.779 E20.96952
G1 X-42.029 Y10.866 E21.56283
G1 X-41.518 Y11.952 E22.08027
G1 X-41.267 Y13.039 E22.56123
G1 X-41.235 Y14.125 E23.02963
G1 X-41.448 Y15.212 E23.50717
G1 X-41.673 Y15.755 E23.76057
G1 X-41.999 Y16.299 E24.03399
G1 X-42.432 Y16.842 E24.33341
G1 X-44.052 Y18.472 E25.32417
G1 X-44.814 Y19.44 E25.85528
G1 X-36.736 Y19.44 E29.33788
G1 X-36.56 Y19.015 E29.53620
G1 X-36.234 Y18.472 E29.80925
G1 X-35.801 Y17.928 E30.10900
G1 X-34.181 Y16.299 E31.09946
G1 X-33.715 Y15.755 E31.40827
G1 X-33.337 Y15.212 E31.69351
G1 X-32.825 Y14.125 E32.21152
G1 X-32.574 Y13.039 E32.69206
G1 X-32.543 Y11.952 E33.16088
G1 X-32.755 Y10.866 E33.63792
G1 X-32.981 Y10.322 E33.89188
G1 X-33.307 Y9.779 E34.16493
G1 X-33.74 Y9.236 E34.46435
G1 X-35.36 Y7.606 E35.45511
G1 X-36.204 Y6.519 E36.04842
G1 X-36.716 Y5.433 E36.56604
G1 X-36.966 Y4.346 E37.04690
G1 X-36.998 Y3.26 E37.51530
G1 X-36.786 Y2.173 E37.99276
G1 X-36.56 Y1.63 E38.24633
G1 X-36.234 Y1.087 E38.51938
G1 X-35.801 Y.543 E38.81913
G1 X-34.181 Y-1.087 E39.80989
G1 X-33.337 Y-2.173 E40.40286
G1 X-32.825 Y-3.26 E40.92087
G1 X-32.574 Y-4.346 E41.40141
G1 X-32.543 Y-5.433 E41.87023
G1 X-32.755 Y-6.519 E42.34727
G1 X-32.981 Y-7.063 E42.60123
G1 X-33.307 Y-7.606 E42.87428
G1 X-33.74 Y-8.149 E43.17370
G1 X-35.36 Y-9.779 E44.16446
G1 X-36.204 Y-10.866 E44.75777
G1 X-36.716 Y-11.952 E45.27539
G1 X-36.966 Y-13.039 E45.75625
G1 X-36.998 Y-14.125 E46.22465
G1 X-36.786 Y-15.212 E46.70211
G1 X-36.56 Y-15.755 E46.95568
G1 X-36.234 Y-16.299 E47.22910
G1 X-35.801 Y-16.842 E47.52852
G1 X-34.181 Y-18.472 E48.51928
G1 X-33.419 Y-19.44 E49.05039
G1 X-24.112 Y-19.44 E53.06284
G1 X-24.288 Y-19.015 E53.26116
G1 X-24.614 Y-18.472 E53.53421
G1 X-25.047 Y-17.928 E53.83396
G1 X-26.667 Y-16.299 E54.82442
G1 X-27.511 Y-15.212 E55.41773
G1 X-28.023 Y-14.125 E55.93574
G1 X-28.274 Y-13.039 E56.41628
G1 X-28.305 Y-11.952 E56.88510
G1 X-28.093 Y-10.866 E57.36214
G1 X-27.867 Y-10.322 E57.61610
G1 X-27.541 Y-9.779 E57.88915
G1 X-27.108 Y-9.236 E58.30834
G1 X-25.488 Y-7.606 E59.79448
G1 X-24.644 Y-6.519 E60.68444
G1 X-24.132 Y-5.433 E61.46087
G1 X-23.882 Y-4.346 E62.18216
G1 X-23.85 Y-3.26 E62.88476
G1 X-24.063 Y-2.173 E63.60107
G1 X-24.288 Y-1.63 E63.98117
G1 X-24.614 Y-1.087 E64.39075
G1 X-25.047 Y-.543 E64.84037
G1 X-26.667 Y1.087 E66.32651
G1 X-27.511 Y2.173 E67.21597
G1 X-28.023 Y3.26 E67.99298
G1 X-28.274 Y4.346 E68.71379
G1 X-28.305 Y5.433 E69.41702
G1 X-28.093 Y6.519 E70.13258
G1 X-27.867 Y7.063 E70.51352
G1 X-27.541 Y7.606 E70.92310
G1 X-27.108 Y8.149 E71.37223
G1 X-25.488 Y9.779 E72.85837
G1 X-24.644 Y10.866 E73.74833
G1 X-24.132 Y11.952 E74.52476
G1 X-23.882 Y13.039 E75.24605
G1 X-23.85 Y14.125 E75.94865
G1 X-24.063 Y15.212 E76.66496
G1 X-24.288 Y15.755 E77.04506
G1 X-24.614 Y16.299 E77.34582
G1 X-25.047 Y16.842 E77.64524
G1 X-26.667 Y18.472 E78.63600
G1 X-27.429 Y19.44 E79.16711
G1 X-19.351 Y19.44 E82.99797
G1 X-19.175 Y19.015 E83.29545
G1 X-18.849 Y18.472 E83.70503
G1 X-18.416 Y17.928 E84.15465
G1 X-16.796 Y16.299 E85.64034
G1 X-16.33 Y15.755 E86.10356
G1 X-15.951 Y15.212 E86.53178
G1 X-15.44 Y14.125 E87.30852
G1 X-15.189 Y13.039 E88.02933
G1 X-15.158 Y11.952 E88.73256
G1 X-15.37 Y10.866 E89.44812
G1 X-15.596 Y10.322 E89.82906
G1 X-15.922 Y9.779 E90.23864
G1 X-16.355 Y9.236 E90.68777
G1 X-17.975 Y7.606 E92.17391
G1 X-18.819 Y6.519 E93.06387
G1 X-19.33 Y5.433 E93.84003
G1 X-19.581 Y4.346 E94.56147
G1 X-19.613 Y3.26 E95.26407
G1 X-19.4 Y2.173 E95.98038
G1 X-19.175 Y1.63 E96.36048
G1 X-18.849 Y1.087 E96.77006
G1 X-18.416 Y.543 E97.21968
G1 X-16.796 Y-1.087 E98.70582
G1 X-15.951 Y-2.173 E99.59567
G1 X-15.44 Y-3.26 E100.37241
G1 X-15.189 Y-4.346 E101.09322
G1 X-15.158 Y-5.433 E101.79645
G1 X-15.37 Y-6.519 E102.51201
G1 X-15.596 Y-7.063 E102.89295
G1 X-15.922 Y-7.606 E103.30253
G1 X-16.355 Y-8.149 E103.75166
G1 X-17.975 Y-9.779 E105.23780
G1 X-18.819 Y-10.866 E106.12776
G1 X-19.33 Y-11.952 E106.90392
G1 X-19.581 Y-13.039 E107.62536
G1 X-19.613 Y-14.125 E108.32796
G1 X-19.4 Y-15.212 E109.04427
G1 X-19.175 Y-15.755 E109.42437
G1 X-18.849 Y-16.299 E109.83450
G1 X-18.416 Y-16.842 E110.28363
G1 X-16.796 Y-18.472 E111.76977
G1 X-16.034 Y-19.44 E112.56644
G1 X-6.726 Y-19.44 E118.58576
G1 X-6.903 Y-19.015 E118.88348
G1 X-7.229 Y-18.472 E119.29305
G1 X-7.662 Y-17.928 E119.74268
G1 X-9.282 Y-16.299 E121.22837
G1 X-10.126 Y-15.212 E122.11833
G1 X-10.638 Y-14.125 E122.89535
G1 X-10.888 Y-13.039 E123.61601
G1 X-10.92 Y-11.952 E124.31925
G1 X-10.708 Y-10.866 E125.03481
G1 X-10.482 Y-10.322 E125.41575
G1 X-10.156 Y-9.779 E125.82533
G1 X-9.723 Y-9.236 E126.27446
G1 X-8.103 Y-7.606 E127.76060
G1 X-7.259 Y-6.519 E128.65056
G1 X-6.747 Y-5.433 E129.42699
G1 X-6.497 Y-4.346 E130.14828
G1 X-6.465 Y-3.26 E130.85088
G1 X-6.677 Y-2.173 E131.56707
G1 X-6.903 Y-1.63 E131.94743
G1 X-7.229 Y-1.087 E132.35700
G1 X-7.662 Y-.543 E132.80663
G1 X-9.282 Y1.087 E134.29277
G1 X-10.126 Y2.173 E135.18222
G1 X-10.638 Y3.26 E135.95924
G1 X-10.888 Y4.346 E136.67990
G1 X-10.92 Y5.433 E137.38314
G1 X-10.708 Y6.519 E138.09870
G1 X-10.482 Y7.063 E138.47964
G1 X-10.156 Y7.606 E138.88922
G1 X-9.723 Y8.149 E139.33835
G1 X-8.103 Y9.779 E140.82449
G1 X-7.259 Y10.866 E141.71445
G1 X-6.747 Y11.952 E142.49088
G1 X-6.497 Y13.039 E143.21217
G1 X-6.465 Y14.125 E143.91477
G1 X-6.677 Y15.212 E144.63096
G1 X-6.903 Y15.755 E145.01132
G1 X-7.229 Y16.299 E145.42145
G1 X-7.662 Y16.842 E145.87058
G1 X-9.282 Y18.472 E147.35672
G1 X-10.044 Y19.44 E148.15338
G1 X-1.966 Y19.44 E153.37728
G1 X-1.79 Y19.015 E153.67476
G1 X-1.464 Y18.472 E154.08434
G1 X-1.031 Y17.928 E154.53396
G1 X.589 Y16.299 E156.01965
G1 X1.055 Y15.755 E156.48287
G1 X1.434 Y15.212 E157.08238
G1 X1.945 Y14.125 E158.63587
G1 X2.196 Y13.039 E160.07749
G1 X2.227 Y11.952 E161.48395
G1 X2.015 Y10.866 E162.91507
G1 X1.79 Y10.322 E163.67647
G1 X1.464 Y9.779 E164.49562
G1 X1.031 Y9.236 E165.39388
G1 X-.589 Y7.606 E168.36616
G1 X-1.434 Y6.519 E170.14687
G1 X-1.945 Y5.433 E171.69919
G1 X-2.196 Y4.346 E173.14207
G1 X-2.227 Y3.26 E174.54724
G1 X-2.015 Y2.173 E175.97962
G1 X-1.79 Y1.63 E176.73982
G1 X-1.464 Y1.087 E177.55897
G1 X-1.031 Y.543 E178.45822
G1 X.589 Y-1.087 E181.43050
G1 X1.434 Y-2.173 E183.21019
G1 X1.945 Y-3.26 E184.76368
G1 X2.196 Y-4.346 E186.20530
G1 X2.227 Y-5.433 E187.61176
G1 X2.015 Y-6.519 E189.04288
G1 X1.79 Y-7.063 E189.80428
G1 X1.464 Y-7.606 E190.62343
G1 X1.031 Y-8.149 E191.52169
G1 X-.589 Y-9.779 E194.49397
G1 X-1.434 Y-10.866 E196.27468
G1 X-1.945 Y-11.952 E197.20607
G1 X-2.196 Y-13.039 E197.92751
G1 X-2.227 Y-14.125 E198.63009
G1 X-2.015 Y-15.212 E199.34628
G1 X-1.79 Y-15.755 E199.72638
G1 X-1.464 Y-16.299 E200.13651
G1 X-1.031 Y-16.842 E200.58564
G1 X.589 Y-18.472 E202.07178
G1 X1.351 Y-19.44 E202.86845
G1 X10.659 Y-19.44 E212.49936
G1 X10.482 Y-19.015 E213.09480
G1 X10.156 Y-18.472 E213.91395
G1 X9.723 Y-17.928 E214.81320
G1 X8.103 Y-16.299 E217.78458
G1 X7.259 Y-15.212 E219.56451
G1 X6.747 Y-14.125 E221.11854
G1 X6.497 Y-13.039 E222.55986
G1 X6.465 Y-11.952 E223.96635
G1 X6.677 Y-10.866 E225.39747
G1 X6.903 Y-10.322 E226.15935
G1 X7.229 Y-9.779 E226.97850
G1 X7.662 Y-9.236 E227.87676
G1 X9.282 Y-7.606 E230.84904
G1 X10.126 Y-6.519 E232.62897
G1 X10.638 Y-5.433 E234.18183
G1 X10.888 Y-4.346 E235.62441
G1 X10.92 Y-3.26 E237.02961
G1 X10.708 Y-2.173 E238.46199
G1 X10.482 Y-1.63 E239.22270
G1 X10.156 Y-1.087 E240.04185
G1 X9.723 Y-.543 E240.94110
G1 X8.103 Y1.087 E243.91338
G1 X7.259 Y2.173 E245.69229
G1 X6.747 Y3.26 E247.24632
G1 X6.497 Y4.346 E248.68764
G1 X6.465 Y5.433 E250.09413
G1 X6.677 Y6.519 E251.52525
G1 X6.903 Y7.063 E252.28713
G1 X7.229 Y7.606 E253.10628
G1 X7.662 Y8.149 E254.00454
G1 X9.282 Y9.779 E256.97682
G1 X10.126 Y10.866 E258.75675
G1 X10.638 Y11.952 E260.30961
G1 X10.888 Y13.039 E261.75219
G1 X10.92 Y14.125 E263.15739
G1 X10.708 Y15.212 E264.58977
G1 X10.482 Y15.755 E265.35048
G1 X10.156 Y16.299 E266.17074
G1 X9.723 Y16.842 E267.06900
G1 X8.103 Y18.472 E270.04128
G1 X7.341 Y19.44 E271.63461
G1 X15.419 Y19.44 E282.08241
G1 X15.596 Y19.015 E282.67785
G1 X15.922 Y18.472 E283.49700
G1 X16.355 Y17.928 E284.39625
G1 X17.975 Y16.299 E287.36763
G1 X18.441 Y15.755 E288.29406
G1 X18.819 Y15.212 E289.14978
G1 X19.33 Y14.125 E290.70327
G1 X19.581 Y13.039 E292.14489
G1 X19.613 Y11.952 E293.55138
G1 X19.4 Y10.866 E294.98274
G1 X19.175 Y10.322 E295.74414
G1 X18.849 Y9.779 E296.56329
G1 X18.416 Y9.236 E297.46155
G1 X16.796 Y7.606 E300.43383
G1 X15.952 Y6.519 E302.21376
G1 X15.44 Y5.433 E303.76662
G1 X15.189 Y4.346 E305.20950
G1 X15.158 Y3.26 E306.61467
G1 X15.37 Y2.173 E308.04705
G1 X15.596 Y1.63 E308.80776
G1 X15.922 Y1.087 E309.62691
G1 X16.355 Y.543 E310.52616
G1 X17.975 Y-1.087 E313.49844
G1 X18.819 Y-2.173 E315.27735
G1 X19.33 Y-3.26 E316.83084
G1 X19.581 Y-4.346 E318.27246
G1 X19.613 Y-5.433 E319.67895
G1 X19.4 Y-6.519 E321.11031
G1 X19.175 Y-7.063 E321.87171
G1 X18.849 Y-7.606 E322.69086
G1 X18.416 Y-8.149 E323.58912
G1 X16.796 Y-9.779 E326.56140
G1 X15.952 Y-10.866 E328.34133
G1 X15.44 Y-11.952 E329.89419
G1 X15.189 Y-13.039 E331.33707
G1 X15.158 Y-14.125 E332.74224
G1 X15.37 Y-15.212 E334.17462
G1 X15.596 Y-15.755 E334.93533
G1 X15.922 Y-16.299 E335.75559
G1 X16.355 Y-16.842 E336.65385
G1 X17.975 Y-18.472 E339.62613
G1 X18.736 Y-19.44 E341.21868
G1 X28.044 Y-19.44 E350.84959
G1 X27.867 Y-19.015 E351.24655
G1 X27.541 Y-18.472 E351.79265
G1 X27.108 Y-17.928 E352.39215
G1 X25.488 Y-16.299 E354.37307
G1 X24.644 Y-15.212 E355.55969
G1 X24.132 Y-14.125 E357.11372
G1 X23.882 Y-13.039 E358.55504
G1 X23.85 Y-11.952 E359.96153
G1 X24.063 Y-10.866 E361.39289
G1 X24.288 Y-10.322 E362.15429
G1 X24.614 Y-9.779 E362.97344
G1 X25.047 Y-9.236 E363.87170
G1 X26.667 Y-7.606 E366.84398
G1 X27.511 Y-6.519 E368.62391
G1 X28.023 Y-5.433 E370.17677
G1 X28.274 Y-4.346 E371.61965
G1 X28.305 Y-3.26 E373.02482
G1 X28.093 Y-2.173 E374.45720
G1 X27.867 Y-1.63 E375.21791
G1 X27.541 Y-1.087 E376.03706
G1 X27.108 Y-.543 E376.93631
G1 X25.488 Y1.087 E379.90859
G1 X24.644 Y2.173 E381.68750
G1 X24.132 Y3.26 E383.24153
G1 X23.882 Y4.346 E384.68285
G1 X23.85 Y5.433 E386.08934
G1 X24.063 Y6.519 E387.52070
G1 X24.288 Y7.063 E388.28210
G1 X24.614 Y7.606 E389.10125
G1 X25.047 Y8.149 E389.99951
G1 X26.667 Y9.779 E392.97179
G1 X27.511 Y10.866 E394.51440
G1 X28.023 Y11.952 E395.54964
G1 X28.274 Y13.039 E396.51156
G1 X28.305 Y14.125 E397.44834
G1 X28.093 Y15.212 E398.40326
G1 X27.867 Y15.755 E398.91040
G1 X27.541 Y16.299 E399.45724
G1 X27.108 Y16.842 E400.05608
G1 X25.488 Y18.472 E402.03760
G1 X24.726 Y19.44 E403.09982
G1 X32.804 Y19.44 E410.06502
G1 X32.981 Y19.015 E410.46198
G1 X33.307 Y18.472 E411.00808
G1 X33.74 Y17.928 E411.60758
G1 X35.36 Y16.299 E413.58850
G1 X35.826 Y15.755 E414.20612
G1 X36.204 Y15.212 E414.77660
G1 X36.716 Y14.125 E415.81262
G1 X36.966 Y13.039 E416.77350
G1 X36.998 Y11.952 E417.71116
G1 X36.786 Y10.866 E418.66524
G1 X36.56 Y10.322 E419.17316
G1 X36.234 Y9.779 E419.71926
G1 X35.801 Y9.236 E420.31810
G1 X34.181 Y7.606 E422.29962
G1 X33.337 Y6.519 E423.48624
G1 X32.825 Y5.433 E424.52148
G1 X32.575 Y4.346 E425.48320
G1 X32.543 Y3.26 E426.42000
G1 X32.755 Y2.173 E427.37492
G1 X32.981 Y1.63 E427.88206
G1 X33.307 Y1.087 E428.42816
G1 X33.74 Y.543 E429.02766
G1 X35.36 Y-1.087 E431.00918
G1 X36.204 Y-2.173 E432.19512
G1 X36.716 Y-3.26 E433.23114
G1 X36.966 Y-4.346 E434.19202
G1 X36.998 Y-5.433 E435.12968
G1 X36.786 Y-6.519 E436.08376
G1 X36.56 Y-7.063 E436.59168
G1 X36.234 Y-7.606 E437.13778
G1 X35.801 Y-8.149 E437.73662
G1 X34.181 Y-9.779 E439.71814
G1 X33.337 Y-10.866 E440.90476
G1 X32.825 Y-11.952 E441.94000
G1 X32.575 Y-13.039 E442.90172
G1 X32.543 Y-14.125 E443.83852
G1 X32.755 Y-15.212 E444.79344
G1 X32.981 Y-15.755 E445.30058
G1 X33.307 Y-16.299 E445.84742
G1 X33.74 Y-16.842 E446.44626
G1 X35.36 Y-18.472 E448.42778
G1 X36.122 Y-19.44 E449.17133
G1 X45.429 Y-19.44 E453.18378
G1 X45.253 Y-19.015 E453.38210
G1 X44.927 Y-18.472 E453.65515
G1 X44.494 Y-17.928 E453.95490
G1 X42.873 Y-16.299 E454.94566
G1 X42.029 Y-15.212 E455.53897
G1 X41.518 Y-14.125 E456.05680
G1 X41.267 Y-13.039 E456.53734
G1 X41.236 Y-11.952 E457.19369
G1 X41.448 Y-10.866 E458.14777
G1 X41.673 Y-10.322 E458.65537
G1 X41.999 Y-9.779 E459.20147
G1 X42.432 Y-9.236 E459.80031
G1 X44.052 Y-7.606 E461.18737
G1 X44.897 Y-6.519 E461.78094
G1 X45.408 Y-5.433 E462.29838
G1 X45.659 Y-4.346 E462.77934
G1 X45.69 Y-3.26 E463.24773
G1 X45.478 Y-2.173 E463.72519
G1 X45.253 Y-1.63 E463.97859
G1 X44.927 Y-1.087 E464.25164
G1 X44.494 Y-.543 E464.61134
G1 X42.873 Y1.087 E466.59348
G1 X42.029 Y2.173 E467.77942
G1 X41.518 Y3.26 E468.81508
G1 X41.267 Y4.346 E469.77616
G1 X41.236 Y5.433 E470.71380
G1 X41.448 Y6.519 E471.66788
G1 X41.673 Y7.063 E472.17548
G1 X41.999 Y7.606 E472.72158
G1 X42.432 Y8.149 E473.32042
G1 X44.052 Y9.779 E474.70749
G1 X44.897 Y10.866 E475.30106
G1 X45.408 Y11.952 E475.81850
G1 X45.659 Y13.039 E476.29946
G1 X45.69 Y14.125 E476.76785
G1 X45.478 Y15.212 E477.24531
G1 X45.253 Y15.755 E477.49871
G1 X44.927 Y16.299 E477.77213
G1 X44.494 Y16.842 E478.07155
G1 X42.873 Y18.472 E479.06262
G1 X42.112 Y19.44 E479.59347
G1 X50.189 Y19.44 E483.07564
G1 X50.366 Y19.015 E483.27412
G1 X50.692 Y18.472 E483.54717
G1 X51.125 Y17.928 E483.84692
G1 X52.745 Y16.299 E484.83738
G1 X53.211 Y15.755 E485.14619
G1 X53.882 Y14.669 E485.69655
G1 X54.101 Y14.125 E485.94937
G1 X54.351 Y13.039 E486.42981
G1 X54.383 Y11.952 E486.89864
G1 X54.171 Y10.866 E487.37568
G1 X53.945 Y10.322 E487.62964
G1 X53.619 Y9.779 E487.90269
G1 X53.186 Y9.236 E488.20211
G1 X51.566 Y7.606 E489.19287
G1 X50.722 Y6.519 E489.78618
G1 X50.21 Y5.433 E490.30380
G1 X49.96 Y4.346 E490.78466
G1 X49.928 Y3.26 E491.25306
G1 X50.14 Y2.173 E491.73052
G1 X50.366 Y1.63 E491.98409
G1 X50.692 Y1.087 E492.25714
