; generated by PrusaSlicer 2.9.0 on 2025-02-10 at 15:40:57 UTC

; 

; external perimeters extrusion width = 1.12mm
; perimeters extrusion width = 1.12mm
; infill extrusion width = 1.12mm
; solid infill extrusion width = 1.12mm
; top infill extrusion width = 1.00mm
; first layer extrusion width = 1.05mm

M190 S25 ; set bed temperature and wait for it to be reached
;TYPE:Custom
G28 H ; home all axes
G92 E0 ; zero extruder
M6
M220 S100
M221 S100
M104 S200 T0
M104 S160 T1

M109 S200 T0
M109 S160 T1
G21 ; set units to millimeters
G90 ; use absolute coordinates
M82 ; use absolute distances for extrusion
G92 E0
M107
;LAYER_CHANGE
;Z:0.5
;HEIGHT:0.5
G1 E-6.00000 F2400
G92 E0
G1 Z.5 F7800
G1 X0 Y-25.471
G1 E6.00000 F2400
;TYPE:Skirt/Brim
;WIDTH:1.05
G1 F1500
G1 X60 Y-25.471 E31.86729
G1 X62.045 Y-25.075 E32.76531
G1 X63.793 Y-23.943 E33.66313
G1 X64.992 Y-22.24 E34.56104
G1 X65.471 Y-20 E35.54859
G1 X65.471 Y20 E52.79345
G1 X65.075 Y22.045 E53.69147
G1 X63.943 Y23.793 E54.58929
G1 X62.24 Y24.992 E55.48720
G1 X60 Y25.471 E56.47475
G1 X-60 Y25.471 E108.20934
G1 X-62.045 Y25.075 E109.10736
G1 X-63.793 Y23.943 E110.00518
G1 X-64.992 Y22.24 E110.90309
G1 X-65.471 Y20 E111.89064
G1 X-65.471 Y-20 E129.13550
G1 X-65.075 Y-22.045 E130.03352
G1 X-63.943 Y-23.793 E130.93134
G1 X-62.24 Y-24.992 E131.82925
G1 X-60 Y-25.471 E132.81680
G1 X-.15 Y-25.471 E158.61943
G1 E156.61943 F2400
G92 E0
G1 X-.15 Y-25.471 F7800
G92 E0
G1 X-47.573 Y-19.44
G1 E2.00000 F2400
;TYPE:Internal infill
G1 F1500
G1 X-41.497 Y-19.44 E4.61949
G1 X-41.673 Y-19.015 E4.81781
G1 X-41.999 Y-18.472 E5.09086
G1 X-42.432 Y-17.928 E5.39061
G1 X-44.052 Y-16.299 E6.38107
G1 X-44.897 Y-15.212 E6.97464
G1 X-45.408 Y-14.125 E7.49247
G1 X-45.659 Y-13.039 E7.97301
G1 X-45.69 Y-11.952 E8.44183
G1 X-45.478 Y-10.866 E8.91887
G1 X-45.253 Y-10.322 E9.17267
G1 X-44.927 Y-9.779 E9.44572
G1 X-44.494 Y-9.236 E9.74514
G1 X-42.873 Y-7.606 E10.73621
G1 X-42.029 Y-6.519 E11.32952
G1 X-41.518 Y-5.433 E11.84696
G1 X-41.267 Y-4.346 E12.32792
G1 X-41.235 Y-3.26 E12.79632
G1 X-41.448 Y-2.173 E13.27386
G1 X-41.673 Y-1.63 E13.52726
G1 X-41.999 Y-1.087 E13.80031
G1 X-42.432 Y-.543 E14.10006
G1 X-44.052 Y1.087 E15.09082
G1 X-44.897 Y2.173 E15.68405
G1 X-45.408 Y3.26 E16.20188
G1 X-45.659 Y4.346 E16.68242
G1 X-45.69 Y5.433 E17.15124
G1 X-45.478 Y6.519 E17.62828
G1 X-45.253 Y7.063 E17.88208
G1 X-44.927 Y7.606 E18.15513
G1 X-44.494 Y8.149 E18.45455
G1 X-42.873 Y9.779 E19.44562
G1 X-42.029 Y10.866 E20.03893
G1 X-41.518 Y11.952 E20.55637
G1 X-41.267 Y13.039 E21.03733
G1 X-41.235 Y14.125 E21.50573
G1 X-41.448 Y15.212 E21.98327
G1 X-41.673 Y15.755 E22.23667
G1 X-41.999 Y16.299 E22.51009
G1 X-42.432 Y16.842 E22.80951
G1 X-44.052 Y18.472 E23.80027
G1 X-44.814 Y19.44 E24.33138
G1 X-36.736 Y19.44 E27.81398
G1 X-36.56 Y19.015 E28.01230
G1 X-36.234 Y18.472 E28.28535
G1 X-35.801 Y17.928 E28.58510
G1 X-34.181 Y16.299 E29.57556
G1 X-33.715 Y15.755 E29.88437
G1 X-33.337 Y15.212 E30.16961
G1 X-32.825 Y14.125 E30.68762
G1 X-32.574 Y13.039 E31.16816
G1 X-32.543 Y11.952 E31.63698
G1 X-32.755 Y10.866 E32.11402
G1 X-32.981 Y10.322 E32.36798
G1 X-33.307 Y9.779 E32.64103
G1 X-33.74 Y9.236 E32.94045
G1 X-35.36 Y7.606 E33.93121
G1 X-36.204 Y6.519 E34.52452
G1 X-36.716 Y5.433 E35.04214
G1 X-36.966 Y4.346 E35.52300
G1 X-36.998 Y3.26 E35.99140
G1 X-36.786 Y2.173 E36.46886
G1 X-36.56 Y1.63 E36.72243
G1 X-36.234 Y1.087 E36.99548
G1 X-35.801 Y.543 E37.29523
G1 X-34.181 Y-1.087 E38.28599
G1 X-33.337 Y-2.173 E38.87896
G1 X-32.825 Y-3.26 E39.39697
G1 X-32.574 Y-4.346 E39.87751
G1 X-32.543 Y-5.433 E40.34633
G1 X-32.755 Y-6.519 E40.82337
G1 X-32.981 Y-7.063 E41.07733
G1 X-33.307 Y-7.606 E41.35038
G1 X-33.74 Y-8.149 E41.64980
G1 X-35.36 Y-9.779 E42.64056
G1 X-36.204 Y-10.866 E43.23387
G1 X-36.716 Y-11.952 E43.75149
G1 X-36.966 Y-13.039 E44.23235
G1 X-36.998 Y-14.125 E44.70075
G1 X-36.786 Y-15.212 E45.17821
G1 X-36.56 Y-15.755 E45.43178
G1 X-36.234 Y-16.299 E45.70520
G1 X-35.801 Y-16.842 E46.00462
G1 X-34.181 Y-18.472 E46.99538
G1 X-33.419 Y-19.44 E47.52649
G1 X-24.112 Y-19.44 E51.53894
G1 X-24.288 Y-19.015 E51.73726
G1 X-24.614 Y-18.472 E52.01031
G1 X-25.047 Y-17.928 E52.31006
G1 X-26.667 Y-16.299 E53.30052
G1 X-27.511 Y-15.212 E53.89383
G1 X-28.023 Y-14.125 E54.41184
G1 X-28.274 Y-13.039 E54.89238
G1 X-28.305 Y-11.952 E55.36120
G1 X-28.093 Y-10.866 E55.83824
G1 X-27.867 Y-10.322 E56.09220
G1 X-27.541 Y-9.779 E56.36525
G1 X-27.108 Y-9.236 E56.66467
G1 X-25.488 Y-7.606 E57.65543
G1 X-24.644 Y-6.519 E58.24874
G1 X-24.132 Y-5.433 E58.76636
G1 X-23.882 Y-4.346 E59.24722
G1 X-23.85 Y-3.26 E59.71562
G1 X-24.063 Y-2.173 E60.19316
G1 X-24.288 Y-1.63 E60.44656
G1 X-24.614 Y-1.087 E60.71961
G1 X-25.047 Y-.543 E61.01936
G1 X-26.667 Y1.087 E62.01012
G1 X-27.511 Y2.173 E62.60309
G1 X-28.023 Y3.26 E63.12110
G1 X-28.274 Y4.346 E63.60164
G1 X-28.305 Y5.433 E64.07046
G1 X-28.093 Y6.519 E64.54750
G1 X-27.867 Y7.063 E64.80146
G1 X-27.541 Y7.606 E65.07451
G1 X-27.108 Y8.149 E65.37393
G1 X-25.488 Y9.779 E66.36469
G1 X-24.644 Y10.866 E66.95800
G1 X-24.132 Y11.952 E67.47562
G1 X-23.882 Y13.039 E67.95648
G1 X-23.85 Y14.125 E68.42488
G1 X-24.063 Y15.212 E68.90242
G1 X-24.288 Y15.755 E69.15582
G1 X-24.614 Y16.299 E69.42924
G1 X-25.047 Y16.842 E69.72866
G1 X-26.667 Y18.472 E70.71942
G1 X-27.429 Y19.44 E71.25053
G1 X-19.351 Y19.44 E74.73313
G1 X-19.175 Y19.015 E74.93145
G1 X-18.849 Y18.472 E75.20450
G1 X-18.416 Y17.928 E75.50425
G1 X-16.796 Y16.299 E76.49471
G1 X-16.33 Y15.755 E76.80352
G1 X-15.951 Y15.212 E77.08900
G1 X-15.44 Y14.125 E77.60683
G1 X-15.189 Y13.039 E78.08737
G1 X-15.158 Y11.952 E78.55619
G1 X-15.37 Y10.866 E79.03323
G1 X-15.596 Y10.322 E79.28719
G1 X-15.922 Y9.779 E79.56024
G1 X-16.355 Y9.236 E79.85966
G1 X-17.975 Y7.606 E80.85042
G1 X-18.819 Y6.519 E81.44373
G1 X-19.33 Y5.433 E81.96117
G1 X-19.581 Y4.346 E82.44213
G1 X-19.613 Y3.26 E82.91053
G1 X-19.4 Y2.173 E83.38807
G1 X-19.175 Y1.63 E83.64147
G1 X-18.849 Y1.087 E83.91452
G1 X-18.416 Y.543 E84.21427
G1 X-16.796 Y-1.087 E85.20503
G1 X-15.951 Y-2.173 E85.79826
G1 X-15.44 Y-3.26 E86.31609
G1 X-15.189 Y-4.346 E86.79663
G1 X-15.158 Y-5.433 E87.26545
G1 X-15.37 Y-6.519 E87.74249
G1 X-15.596 Y-7.063 E87.99645
G1 X-15.922 Y-7.606 E88.26950
G1 X-16.355 Y-8.149 E88.56892
G1 X-17.975 Y-9.779 E89.55968
G1 X-18.819 Y-10.866 E90.15299
G1 X-19.33 Y-11.952 E90.67043
G1 X-19.581 Y-13.039 E91.15139
G1 X-19.613 Y-14.125 E91.61979
G1 X-19.4 Y-15.212 E92.09733
G1 X-19.175 Y-15.755 E92.35073
G1 X-18.849 Y-16.299 E92.62415
G1 X-18.416 Y-16.842 E92.92357
G1 X-16.796 Y-18.472 E93.91433
G1 X-16.034 Y-19.44 E94.44544
G1 X-6.726 Y-19.44 E98.45832
G1 X-6.903 Y-19.015 E98.65680
G1 X-7.229 Y-18.472 E98.92985
G1 X-7.662 Y-17.928 E99.22960
G1 X-9.282 Y-16.299 E100.22006
G1 X-10.126 Y-15.212 E100.81337
G1 X-10.638 Y-14.125 E101.33138
G1 X-10.888 Y-13.039 E101.81182
G1 X-10.92 Y-11.952 E102.28065
G1 X-10.708 Y-10.866 E102.75769
G1 X-10.482 Y-10.322 E103.01165
G1 X-10.156 Y-9.779 E103.28470
G1 X-9.723 Y-9.236 E103.58412
G1 X-8.103 Y-7.606 E104.57488
G1 X-7.259 Y-6.519 E105.16819
G1 X-6.747 Y-5.433 E105.68581
G1 X-6.497 Y-4.346 E106.16667
G1 X-6.465 Y-3.26 E106.86927
G1 X-6.677 Y-2.173 E107.34673
G1 X-6.903 Y-1.63 E107.60030
G1 X-7.229 Y-1.087 E107.87335
G1 X-7.662 Y-.543 E108.17310
G1 X-9.282 Y1.087 E109.16386
G1 X-10.126 Y2.173 E109.75683
G1 X-10.638 Y3.26 E110.27484
G1 X-10.888 Y4.346 E110.75528
G1 X-10.92 Y5.433 E111.22411
G1 X-10.708 Y6.519 E111.70115
G1 X-10.482 Y7.063 E111.95511
G1 X-10.156 Y7.606 E112.22816
G1 X-9.723 Y8.149 E112.52758
G1 X-8.103 Y9.779 E113.51834
G1 X-7.259 Y10.866 E114.11165
G1 X-6.747 Y11.952 E114.62927
G1 X-6.497 Y13.039 E115.11013
G1 X-6.465 Y14.125 E115.81273
G1 X-6.677 Y15.212 E116.29019
G1 X-6.903 Y15.755 E116.54376
G1 X-7.229 Y16.299 E116.81718
G1 X-7.662 Y16.842 E117.11660
G1 X-9.282 Y18.472 E118.10736
G1 X-10.044 Y19.44 E118.63847
G1 X-1.966 Y19.44 E122.12107
G1 X-1.79 Y19.015 E122.41855
G1 X-1.464 Y18.472 E122.82812
G1 X-1.031 Y17.928 E123.27775
G1 X.589 Y16.299 E124.76344
G1 X1.055 Y15.755 E125.22666
G1 X1.434 Y15.212 E125.82616
G1 X1.945 Y14.125 E127.37965
G1 X2.196 Y13.039 E128.82127
G1 X2.227 Y11.952 E130.22773
G1 X2.015 Y10.866 E131.65885
G1 X1.79 Y10.322 E132.42025
G1 X1.464 Y9.779 E133.23940
G1 X1.031 Y9.236 E134.13766
G1 X-.589 Y7.606 E137.10994
G1 X-1.434 Y6.519 E138.89065
G1 X-1.945 Y5.433 E140.44297
G1 X-2.196 Y4.346 E141.88585
G1 X-2.227 Y3.26 E143.29102
G1 X-2.015 Y2.173 E144.72340
G1 X-1.79 Y1.63 E145.48360
G1 X-1.464 Y1.087 E146.30275
G1 X-1.031 Y.543 E147.20200
G1 X.589 Y-1.087 E150.17428
G1 X1.434 Y-2.173 E151.95397
G1 X1.945 Y-3.26 E153.50746
G1 X2.196 Y-4.346 E154.94908
G1 X2.227 Y-5.433 E156.35554
G1 X2.015 Y-6.519 E157.78666
G1 X1.79 Y-7.063 E158.54806
G1 X1.464 Y-7.606 E159.36721
G1 X1.031 Y-8.149 E160.26547
G1 X-.589 Y-9.779 E163.23775
G1 X-1.434 Y-10.866 E165.01846
G1 X-1.945 Y-11.952 E165.94985
G1 X-2.196 Y-13.039 E166.67129
G1 X-2.227 Y-14.125 E167.37388
G1 X-2.015 Y-15.212 E168.09007
G1 X-1.79 Y-15.755 E168.47017
G1 X-1.464 Y-16.299 E168.88030
G1 X-1.031 Y-16.842 E169.32943
G1 X.589 Y-18.472 E170.81557
G1 X1.351 Y-19.44 E171.61223
G1 X10.659 Y-19.44 E175.62511
G1 X10.482 Y-19.015 E176.02207
G1 X10.156 Y-18.472 E176.56817
G1 X9.723 Y-17.928 E177.16767
G1 X8.103 Y-16.299 E179.14860
G1 X7.259 Y-15.212 E180.33522
G1 X6.747 Y-14.125 E181.37124
G1 X6.497 Y-13.039 E181.85168
G1 X6.465 Y-11.952 E183.25816
G1 X6.677 Y-10.866 E183.73520
G1 X6.903 Y-10.322 E184.24312
G1 X7.229 Y-9.779 E184.78923
G1 X7.662 Y-9.236 E185.38807
G1 X9.282 Y-7.606 E187.36959
G1 X10.126 Y-6.519 E188.55621
G1 X10.638 Y-5.433 E189.59144
G1 X10.888 Y-4.346 E190.55317
G1 X10.92 Y-3.26 E191.48997
G1 X10.708 Y-2.173 E192.44489
G1 X10.482 Y-1.63 E192.95203
G1 X10.156 Y-1.087 E193.49812
G1 X9.723 Y-.543 E194.09763
G1 X8.103 Y1.087 E196.07915
G1 X7.259 Y2.173 E197.26509
G1 X6.747 Y3.26 E198.30110
G1 X6.497 Y4.346 E198.78154
G1 X6.465 Y5.433 E200.18803
G1 X6.677 Y6.519 E200.66507
G1 X6.903 Y7.063 E201.17299
G1 X7.229 Y7.606 E201.71910
G1 X7.662 Y8.149 E202.31794
G1 X9.282 Y9.779 E204.29945
G1 X10.126 Y10.866 E205.48607
G1 X10.638 Y11.952 E206.52131
G1 X10.888 Y13.039 E207.48304
G1 X10.92 Y14.125 E208.41984
G1 X10.708 Y15.212 E209.37476
G1 X10.482 Y15.755 E209.88190
G1 X10.156 Y16.299 E210.42873
G1 X9.723 Y16.842 E211.02757
G1 X8.103 Y18.472 E213.00909
G1 X7.341 Y19.44 E214.07131
G1 X15.419 Y19.44 E221.03651
G1 X15.596 Y19.015 E221.43348
G1 X15.922 Y18.472 E221.97957
G1 X16.355 Y17.928 E222.57908
G1 X17.975 Y16.299 E224.55999
G1 X18.441 Y15.755 E225.17761
G1 X18.819 Y15.212 E225.74810
G1 X19.33 Y14.125 E226.78376
G1 X19.581 Y13.039 E227.74483
G1 X19.613 Y11.952 E228.68249
G1 X19.4 Y10.866 E229.63674
G1 X19.175 Y10.322 E230.14433
G1 X18.849 Y9.779 E230.69044
G1 X18.416 Y9.236 E231.28928
G1 X16.796 Y7.606 E233.27079
G1 X15.952 Y6.519 E234.45741
G1 X15.44 Y5.433 E235.49265
G1 X15.189 Y4.346 E236.45458
G1 X15.158 Y3.26 E237.39136
G1 X15.37 Y2.173 E238.34628
G1 X15.596 Y1.63 E238.85342
G1 X15.922 Y1.087 E239.39951
G1 X16.355 Y.543 E239.99902
G1 X17.975 Y-1.087 E241.98054
G1 X18.819 Y-2.173 E243.16648
G1 X19.33 Y-3.26 E244.20214
G1 X19.581 Y-4.346 E245.16322
G1 X19.613 Y-5.433 E246.10088
G1 X19.4 Y-6.519 E247.05511
G1 X19.175 Y-7.063 E247.56271
G1 X18.849 Y-7.606 E248.10882
G1 X18.416 Y-8.149 E248.70766
G1 X16.796 Y-9.779 E250.68918
G1 X15.952 Y-10.866 E251.87580
G1 X15.44 Y-11.952 E252.91103
G1 X15.189 Y-13.039 E253.87296
G1 X15.158 Y-14.125 E254.80974
G1 X15.37 Y-15.212 E255.76465
G1 X15.596 Y-15.755 E256.27179
G1 X15.922 Y-16.299 E256.81863
G1 X16.355 Y-16.842 E257.41747
G1 X17.975 Y-18.472 E259.39899
G1 X18.736 Y-19.44 E260.46069
G1 X28.044 Y-19.44 E268.48645
G1 X27.867 Y-19.015 E268.88341
G1 X27.541 Y-18.472 E269.42951
G1 X27.108 Y-17.928 E270.02901
G1 X25.488 Y-16.299 E272.00993
G1 X24.644 Y-15.212 E273.19655
G1 X24.132 Y-14.125 E274.23257
G1 X23.882 Y-13.039 E275.19345
G1 X23.85 Y-11.952 E276.13111
G1 X24.063 Y-10.866 E277.08535
G1 X24.288 Y-10.322 E277.59295
G1 X24.614 Y-9.779 E278.13905
G1 X25.047 Y-9.236 E278.73789
G1 X26.667 Y-7.606 E280.71941
G1 X27.511 Y-6.519 E281.90603
G1 X28.023 Y-5.433 E282.94127
G1 X28.274 Y-4.346 E283.90319
G1 X28.305 Y-3.26 E284.83997
G1 X28.093 Y-2.173 E285.79489
G1 X27.867 Y-1.63 E286.30203
G1 X27.541 Y-1.087 E286.84813
G1 X27.108 Y-.543 E287.44763
G1 X25.488 Y1.087 E289.42915
G1 X24.644 Y2.173 E290.61509
G1 X24.132 Y3.26 E291.65111
G1 X23.882 Y4.346 E292.61199
G1 X23.85 Y5.433 E293.54965
G1 X24.063 Y6.519 E294.50389
G1 X24.288 Y7.063 E295.01149
G1 X24.614 Y7.606 E295.55759
G1 X25.047 Y8.149 E296.15643
G1 X26.667 Y9.779 E298.13795
G1 X27.511 Y10.866 E299.32457
G1 X28.023 Y11.952 E300.35981
G1 X28.274 Y13.039 E301.32173
G1 X28.305 Y14.125 E302.25851
G1 X28.093 Y15.212 E303.21343
G1 X27.867 Y15.755 E303.72057
G1 X27.541 Y16.299 E304.26741
G1 X27.108 Y16.842 E304.86625
G1 X25.488 Y18.472 E306.84777
G1 X24.726 Y19.44 E307.90999
G1 X32.804 Y19.44 E314.87519
G1 X32.981 Y19.015 E315.27215
G1 X33.307 Y18.472 E315.81825
G1 X33.74 Y17.928 E316.41775
G1 X35.36 Y16.299 E318.39867
G1 X35.826 Y15.755 E319.01629
G1 X36.204 Y15.212 E319.58677
G1 X36.716 Y14.125 E320.62279
G1 X36.966 Y13.039 E321.58367
G1 X36.998 Y11.952 E322.52133
G1 X36.786 Y10.866 E323.47541
G1 X36.56 Y10.322 E323.98333
G1 X36.234 Y9.779 E324.52943
G1 X35.801 Y9.236 E325.12827
G1 X34.181 Y7.606 E327.10979
G1 X33.337 Y6.519 E328.29641
G1 X32.825 Y5.433 E329.33165
G1 X32.575 Y4.346 E330.29337
G1 X32.543 Y3.26 E331.23017
G1 X32.755 Y2.173 E332.18509
G1 X32.981 Y1.63 E332.69223
G1 X33.307 Y1.087 E333.23833
G1 X33.74 Y.543 E333.83783
G1 X35.36 Y-1.087 E335.81935
G1 X36.204 Y-2.173 E337.00529
G1 X36.716 Y-3.26 E338.04131
G1 X36.966 Y-4.346 E339.00219
G1 X36.998 Y-5.433 E339.93985
G1 X36.786 Y-6.519 E340.89393
G1 X36.56 Y-7.063 E341.40185
G1 X36.234 Y-7.606 E341.94795
G1 X35.801 Y-8.149 E342.54679
G1 X34.181 Y-9.779 E344.52831
G1 X33.337 Y-10.866 E345.71493
G1 X32.825 Y-11.952 E346.75017
G1 X32.575 Y-13.039 E347.71189
G1 X32.543 Y-14.125 E348.64869
G1 X32.755 Y-15.212 E349.60361
G1 X32.981 Y-15.755 E350.11075
G1 X33.307 Y-16.299 E350.65759
G1 X33.74 Y-16.842 E351.25643
G1 X35.36 Y-18.472 E353.23795
G1 X36.122 Y-19.44 E353.98151
G1 X45.429 Y-19.44 E357.99396
G1 X45.253 Y-19.015 E358.19228
G1 X44.927 Y-18.472 E358.46533
G1 X44.494 Y-17.928 E358.76508
G1 X42.873 Y-16.299 E359.75584
G1 X42.029 Y-15.212 E360.34915
G1 X41.518 Y-14.125 E360.86698
G1 X41.267 Y-13.039 E361.34752
G1 X41.236 Y-11.952 E362.00387
G1 X41.448 Y-10.866 E362.95795
G1 X41.673 Y-10.322 E363.46555
G1 X41.999 Y-9.779 E364.01165
G1 X42.432 Y-9.236 E364.61049
G1 X44.052 Y-7.606 E365.99755
G1 X44.897 Y-6.519 E366.59112
G1 X45.408 Y-5.433 E367.10856
G1 X45.659 Y-4.346 E367.58952
G1 X45.69 Y-3.26 E368.05791
G1 X45.478 Y-2.173 E368.53537
G1 X45.253 Y-1.63 E368.78877
G1 X44.927 Y-1.087 E369.06182
G1 X44.494 Y-.543 E369.42152
G1 X42.873 Y1.087 E371.40366
G1 X42.029 Y2.173 E372.58960
G1 X41.518 Y3.26 E373.62526
G1 X41.267 Y4.346 E374.58634
G1 X41.236 Y5.433 E375.52398
G1 X41.448 Y6.519 E376.47806
G1 X41.673 Y7.063 E376.98566
G1 X41.999 Y7.606 E377.53176
G1 X42.432 Y8.149 E378.13060
G1 X44.052 Y9.779 E379.51767
G1 X44.897 Y10.866 E380.11124
G1 X45.408 Y11.952 E380.62868
G1 X45.659 Y13.039 E381.10964
G1 X45.69 Y14.125 E381.57803
G1 X45.478 Y15.212 E382.05549
G1 X45.253 Y15.755 E382.30889
G1 X44.927 Y16.299 E382.58231
G1 X44.494 Y16.842 E382.88173
G1 X42.873 Y18.472 E383.87279
G1 X42.112 Y19.44 E384.40365
G1 X50.189 Y19.44 E387.88582
G1 X50.366 Y19.015 E388.08429
G1 X50.692 Y18.472 E388.35735
G1 X51.125 Y17.928 E388.65710
G1 X52.745 Y16.299 E389.64756
G1 X53.211 Y15.755 E389.95637
G1 X53.882 Y14.669 E390.50673
G1 X54.101 Y14.125 E390.75955
G1 X54.351 Y13.039 E391.23998
G1 X54.383 Y11.952 E391.70882
G1 X54.171 Y10.866 E392.18586
G1 X53.945 Y10.322 E392.43982
G1 X53.619 Y9.779 E392.71287
G1 X53.186 Y9.236 E393.01229
G1 X51.566 Y7.606 E394.00305
G1 X50.722 Y6.519 E394.59636
G1 X50.21 Y5.433 E395.11398
G1 X49.96 Y4.346 E395.59483
G1 X49.928 Y3.26 E396.06324
G1 X50.14 Y2.173 E396.54070
G1 X50.366 Y1.63 E396.79426
G1 X50.692 Y1.087 E397.06732
