; generated by PrusaSlicer 2.9.0 on 2025-02-10 at 15:40:57 UTC

; 

; external perimeters extrusion width = 1.12mm
; perimeters extrusion width = 1.12mm
; infill extrusion width = 1.12mm
; solid infill extrusion width = 1.12mm
; top infill extrusion width = 1.00mm
; first layer extrusion width = 1.05mm

M190 S25 ; set bed temperature and wait for it to be reached
;TYPE:Custom
G28 H ; home all axes
G92 E0 ; zero extruder
M6
M220 S100
M221 S100
M104 S200 T0
M104 S160 T1

M109 S200 T0
M109 S160 T1
G21 ; set units to millimeters
G90 ; use absolute coordinates
M82 ; use absolute distances for extrusion
G92 E0
M107
;LAYER_CHANGE
;Z:0.5
;HEIGHT:0.5
G1 E-3.00000 F2400
G92 E0
G1 Z.5 F7800
G1 X0 Y-25.471
G1 E3.00000 F2400
;TYPE:Skirt/Brim
;WIDTH:1.05
G1 F1500
G1 X60 Y-25.471 E54.73458
G1 X62.045 Y-25.075 E56.53062
G1 X63.793 Y-23.943 E58.32626
G1 X64.992 Y-22.24 E60.12208
G1 X65.471 Y-20 E62.09718
G1 X65.471 Y20 E96.58690
G1 X65.075 Y22.045 E98.38294
G1 X63.943 Y23.793 E100.17858
G1 X62.24 Y24.992 E101.97440
G1 X60 Y25.471 E103.94950
G1 X-60 Y25.471 E166.03101
G1 X-62.045 Y25.075 E166.92903
G1 X-63.793 Y23.943 E167.82685
G1 X-64.992 Y22.24 E168.72476
G1 X-65.471 Y20 E169.71231
G1 X-65.471 Y-20 E186.95717
G1 X-65.075 Y-22.045 E187.85519
G1 X-63.943 Y-23.793 E188.75301
G1 X-62.24 Y-24.992 E189.65092
G1 X-60 Y-25.471 E190.63847
G1 X-.15 Y-25.471 E216.44110
G1 E214.44110 F2400
G92 E0
G1 X-.15 Y-25.471 F7800
G92 E0
G1 X-47.573 Y-19.44
G1 E2.00000 F2400
;TYPE:Internal infill
G1 F1500
G1 X-41.497 Y-19.44 E4.61949
G1 X-41.673 Y-19.015 E4.81781
G1 X-41.999 Y-18.472 E5.09086
G1 X-42.432 Y-17.928 E5.39061
G1 X-44.052 Y-16.299 E6.38107
G1 X-44.897 Y-15.212 E6.97464
G1 X-45.408 Y-14.125 E7.49247
G1 X-45.659 Y-13.039 E7.97301
G1 X-45.69 Y-11.952 E8.44183
G1 X-45.478 Y-10.866 E8.91887
G1 X-45.253 Y-10.322 E9.17267
G1 X-44.927 Y-9.779 E9.44572
G1 X-44.494 Y-9.236 E9.74514
G1 X-42.873 Y-7.606 E10.73621
G1 X-42.029 Y-6.519 E11.32952
G1 X-41.518 Y-5.433 E11.84696
G1 X-41.267 Y-4.346 E12.32792
G1 X-41.235 Y-3.26 E12.79632
G1 X-41.448 Y-2.173 E13.27386
G1 X-41.673 Y-1.63 E13.52726
G1 X-41.999 Y-1.087 E13.80031
G1 X-42.432 Y-.543 E14.10006
G1 X-44.052 Y1.087 E15.09082
G1 X-44.897 Y2.173 E15.68405
G1 X-45.408 Y3.26 E16.20188
G1 X-45.659 Y4.346 E16.68242
G1 X-45.69 Y5.433 E17.15124
G1 X-45.478 Y6.519 E17.62828
G1 X-45.253 Y7.063 E17.88208
G1 X-44.927 Y7.606 E18.15513
G1 X-44.494 Y8.149 E18.45455
G1 X-42.873 Y9.779 E19.44562
G1 X-42.029 Y10.866 E20.03893
G1 X-41.518 Y11.952 E20.55637
G1 X-41.267 Y13.039 E21.03733
G1 X-41.235 Y14.125 E21.50573
G1 X-41.448 Y15.212 E21.98327
G1 X-41.673 Y15.755 E22.23667
G1 X-41.999 Y16.299 E22.51009
G1 X-42.432 Y16.842 E22.80951
G1 X-44.052 Y18.472 E23.80027
G1 X-44.814 Y19.44 E24.33138
G1 X-36.736 Y19.44 E27.81398
G1 X-36.56 Y19.015 E28.01230
G1 X-36.234 Y18.472 E28.28535
G1 X-35.801 Y17.928 E28.58510
G1 X-34.181 Y16.299 E29.57556
G1 X-33.715 Y15.755 E29.88437
G1 X-33.337 Y15.212 E30.16961
G1 X-32.825 Y14.125 E30.68762
G1 X-32.574 Y13.039 E31.16816
G1 X-32.543 Y11.952 E31.63698
G1 X-32.755 Y10.866 E32.11402
G1 X-32.981 Y10.322 E32.36798
G1 X-33.307 Y9.779 E32.64103
G1 X-33.74 Y9.236 E32.94045
G1 X-35.36 Y7.606 E33.93121
G1 X-36.204 Y6.519 E34.52452
G1 X-36.716 Y5.433 E35.04214
G1 X-36.966 Y4.346 E35.52300
G1 X-36.998 Y3.26 E35.99140
G1 X-36.786 Y2.173 E36.46886
G1 X-36.56 Y1.63 E36.72243
G1 X-36.234 Y1.087 E36.99548
G1 X-35.801 Y.543 E37.29523
G1 X-34.181 Y-1.087 E38.28599
G1 X-33.337 Y-2.173 E38.87896
G1 X-32.825 Y-3.26 E39.39697
G1 X-32.574 Y-4.346 E39.87751
G1 X-32.543 Y-5.433 E40.34633
G1 X-32.755 Y-6.519 E40.82337
G1 X-32.981 Y-7.063 E41.07733
G1 X-33.307 Y-7.606 E41.35038
G1 X-33.74 Y-8.149 E41.64980
G1 X-35.36 Y-9.779 E42.64056
G1 X-36.204 Y-10.866 E43.23387
G1 X-36.716 Y-11.952 E43.75149
G1 X-36.966 Y-13.039 E44.23235
G1 X-36.998 Y-14.125 E44.70075
G1 X-36.786 Y-15.212 E45.17821
G1 X-36.56 Y-15.755 E45.43178
G1 X-36.234 Y-16.299 E45.70520
G1 X-35.801 Y-16.842 E46.00462
G1 X-34.181 Y-18.472 E46.99538
G1 X-33.419 Y-19.44 E47.52649
G1 X-24.112 Y-19.44 E51.53894
G1 X-24.288 Y-19.015 E51.73726
G1 X-24.614 Y-18.472 E52.01031
G1 X-25.047 Y-17.928 E52.31006
G1 X-26.667 Y-16.299 E53.30052
G1 X-27.511 Y-15.212 E53.89383
G1 X-28.023 Y-14.125 E54.41184
G1 X-28.274 Y-13.039 E54.89238
G1 X-28.305 Y-11.952 E55.36120
G1 X-28.093 Y-10.866 E55.83824
G1 X-27.867 Y-10.322 E56.09220
G1 X-27.541 Y-9.779 E56.36525
G1 X-27.108 Y-9.236 E56.66467
G1 X-25.488 Y-7.606 E57.65543
G1 X-24.644 Y-6.519 E58.24874
G1 X-24.132 Y-5.433 E58.76636
G1 X-23.882 Y-4.346 E59.24722
G1 X-23.85 Y-3.26 E59.71562
G1 X-24.063 Y-2.173 E60.19316
G1 X-24.288 Y-1.63 E60.44656
G1 X-24.614 Y-1.087 E60.71961
G1 X-25.047 Y-.543 E61.01936
G1 X-26.667 Y1.087 E62.01012
G1 X-27.511 Y2.173 E62.60309
G1 X-28.023 Y3.26 E63.12110
G1 X-28.274 Y4.346 E63.60164
G1 X-28.305 Y5.433 E64.07046
G1 X-28.093 Y6.519 E64.54750
G1 X-27.867 Y7.063 E64.80146
G1 X-27.541 Y7.606 E65.07451
G1 X-27.108 Y8.149 E65.37393
G1 X-25.488 Y9.779 E66.36469
G1 X-24.644 Y10.866 E66.95800
G1 X-24.132 Y11.952 E67.47562
G1 X-23.882 Y13.039 E67.95648
G1 X-23.85 Y14.125 E68.42488
G1 X-24.063 Y15.212 E68.90242
G1 X-24.288 Y15.755 E69.15582
G1 X-24.614 Y16.299 E69.42924
G1 X-25.047 Y16.842 E69.72866
G1 X-26.667 Y18.472 E70.71942
G1 X-27.429 Y19.44 E71.25053
G1 X-19.351 Y19.44 E74.73313
G1 X-19.175 Y19.015 E75.03061
G1 X-18.849 Y18.472 E75.44018
G1 X-18.416 Y17.928 E75.88981
G1 X-16.796 Y16.299 E77.37550
G1 X-16.33 Y15.755 E77.83872
G1 X-15.951 Y15.212 E78.26693
G1 X-15.44 Y14.125 E79.04368
G1 X-15.189 Y13.039 E79.76449
G1 X-15.158 Y11.952 E80.46772
G1 X-15.37 Y10.866 E81.18328
G1 X-15.596 Y10.322 E81.56422
G1 X-15.922 Y9.779 E81.97379
G1 X-16.355 Y9.236 E82.42292
G1 X-17.975 Y7.606 E83.90906
G1 X-18.819 Y6.519 E84.79903
G1 X-19.33 Y5.433 E85.57519
G1 X-19.581 Y4.346 E86.29663
G1 X-19.613 Y3.26 E86.99923
G1 X-19.4 Y2.173 E87.71554
G1 X-19.175 Y1.63 E88.09564
G1 X-18.849 Y1.087 E88.50521
G1 X-18.416 Y.543 E88.95484
G1 X-16.796 Y-1.087 E90.44098
G1 X-15.951 Y-2.173 E91.33082
G1 X-15.44 Y-3.26 E92.10757
G1 X-15.189 Y-4.346 E92.82838
G1 X-15.158 Y-5.433 E93.53161
G1 X-15.37 Y-6.519 E94.24717
G1 X-15.596 Y-7.063 E94.62811
G1 X-15.922 Y-7.606 E95.03768
G1 X-16.355 Y-8.149 E95.48682
G1 X-17.975 Y-9.779 E96.97295
G1 X-18.819 Y-10.866 E97.86292
G1 X-19.33 Y-11.952 E98.63908
G1 X-19.581 Y-13.039 E99.36052
G1 X-19.613 Y-14.125 E100.06312
G1 X-19.4 Y-15.212 E100.77943
G1 X-19.175 Y-15.755 E101.15953
G1 X-18.849 Y-16.299 E101.56966
G1 X-18.416 Y-16.842 E102.01879
G1 X-16.796 Y-18.472 E103.50493
G1 X-16.034 Y-19.44 E104.30159
G1 X-6.726 Y-19.44 E110.32091
G1 X-6.903 Y-19.015 E110.61863
G1 X-7.229 Y-18.472 E111.02821
G1 X-7.662 Y-17.928 E111.47783
G1 X-9.282 Y-16.299 E112.96352
G1 X-10.126 Y-15.212 E113.85349
G1 X-10.638 Y-14.125 E114.63050
G1 X-10.888 Y-13.039 E115.35116
G1 X-10.92 Y-11.952 E116.05441
G1 X-10.708 Y-10.866 E116.76997
G1 X-10.482 Y-10.322 E117.15091
G1 X-10.156 Y-9.779 E117.56048
G1 X-9.723 Y-9.236 E118.00961
G1 X-8.103 Y-7.606 E119.49575
G1 X-7.259 Y-6.519 E120.38572
G1 X-6.747 Y-5.433 E121.16215
G1 X-6.497 Y-4.346 E121.88344
G1 X-6.465 Y-3.26 E122.58604
G1 X-6.677 Y-2.173 E123.30223
G1 X-6.903 Y-1.63 E123.68258
G1 X-7.229 Y-1.087 E124.09216
G1 X-7.662 Y-.543 E124.54178
G1 X-9.282 Y1.087 E126.02792
G1 X-10.126 Y2.173 E126.91738
G1 X-10.638 Y3.26 E127.69439
G1 X-10.888 Y4.346 E128.41505
G1 X-10.92 Y5.433 E129.11830
G1 X-10.708 Y6.519 E129.83386
G1 X-10.482 Y7.063 E130.21480
G1 X-10.156 Y7.606 E130.62437
G1 X-9.723 Y8.149 E131.07350
G1 X-8.103 Y9.779 E132.55964
G1 X-7.259 Y10.866 E133.44961
G1 X-6.747 Y11.952 E134.22604
G1 X-6.497 Y13.039 E134.94733
G1 X-6.465 Y14.125 E135.64993
G1 X-6.677 Y15.212 E136.36612
G1 X-6.903 Y15.755 E136.74647
G1 X-7.229 Y16.299 E137.15660
G1 X-7.662 Y16.842 E137.60573
G1 X-9.282 Y18.472 E139.09187
G1 X-10.044 Y19.44 E139.88854
G1 X-1.966 Y19.44 E145.11244
G1 X-1.79 Y19.015 E145.40992
G1 X-1.464 Y18.472 E145.81949
G1 X-1.031 Y17.928 E146.26912
G1 X.589 Y16.299 E147.75481
G1 X1.055 Y15.755 E148.21802
G1 X1.434 Y15.212 E148.64624
G1 X1.945 Y14.125 E149.42299
G1 X2.196 Y13.039 E150.14380
G1 X2.227 Y11.952 E150.84703
G1 X2.015 Y10.866 E151.56259
G1 X1.79 Y10.322 E151.94329
G1 X1.464 Y9.779 E152.35286
G1 X1.031 Y9.236 E152.80199
G1 X-.589 Y7.606 E154.28813
G1 X-1.434 Y6.519 E155.17849
G1 X-1.945 Y5.433 E155.95465
G1 X-2.196 Y4.346 E156.67609
G1 X-2.227 Y3.26 E157.37867
G1 X-2.015 Y2.173 E158.09486
G1 X-1.79 Y1.63 E158.47496
G1 X-1.464 Y1.087 E158.88454
G1 X-1.031 Y.543 E159.33416
G1 X.589 Y-1.087 E160.82030
G1 X1.434 Y-2.173 E161.71015
G1 X1.945 Y-3.26 E162.48689
G1 X2.196 Y-4.346 E163.20770
G1 X2.227 Y-5.433 E163.91093
G1 X2.015 Y-6.519 E164.62649
G1 X1.79 Y-7.063 E165.00719
G1 X1.464 Y-7.606 E165.41677
G1 X1.031 Y-8.149 E165.86590
G1 X-.589 Y-9.779 E167.35204
G1 X-1.434 Y-10.866 E168.24239
G1 X-1.945 Y-11.952 E169.01855
G1 X-2.196 Y-13.039 E169.73999
G1 X-2.227 Y-14.125 E170.44258
G1 X-2.015 Y-15.212 E171.15877
G1 X-1.79 Y-15.755 E171.53887
G1 X-1.464 Y-16.299 E171.94900
G1 X-1.031 Y-16.842 E172.39813
G1 X.589 Y-18.472 E173.88427
G1 X1.351 Y-19.44 E174.68093
G1 X10.659 Y-19.44 E180.70025
G1 X10.482 Y-19.015 E180.99797
G1 X10.156 Y-18.472 E181.40755
G1 X9.723 Y-17.928 E181.85717
G1 X8.103 Y-16.299 E183.34286
G1 X7.259 Y-15.212 E184.23283
G1 X6.747 Y-14.125 E185.00984
G1 X6.497 Y-13.039 E185.73050
G1 X6.465 Y-11.952 E186.43375
G1 X6.677 Y-10.866 E187.14931
G1 X6.903 Y-10.322 E187.53025
G1 X7.229 Y-9.779 E187.93982
G1 X7.662 Y-9.236 E188.38895
G1 X9.282 Y-7.606 E189.87509
G1 X10.126 Y-6.519 E190.76506
G1 X10.638 Y-5.433 E191.54149
G1 X10.888 Y-4.346 E192.26278
G1 X10.92 Y-3.26 E192.96538
G1 X10.708 Y-2.173 E193.68157
G1 X10.482 Y-1.63 E194.06192
G1 X10.156 Y-1.087 E194.47150
G1 X9.723 Y-.543 E194.92112
G1 X8.103 Y1.087 E196.40726
G1 X7.259 Y2.173 E197.29672
G1 X6.747 Y3.26 E198.07373
G1 X6.497 Y4.346 E198.79439
G1 X6.465 Y5.433 E199.49764
G1 X6.677 Y6.519 E200.21320
G1 X6.903 Y7.063 E200.59414
G1 X7.229 Y7.606 E201.00371
G1 X7.662 Y8.149 E201.45284
G1 X9.282 Y9.779 E202.93898
G1 X10.126 Y10.866 E203.82895
G1 X10.638 Y11.952 E204.60538
G1 X10.888 Y13.039 E205.32667
G1 X10.92 Y14.125 E206.02927
G1 X10.708 Y15.212 E206.74546
G1 X10.482 Y15.755 E207.12581
G1 X10.156 Y16.299 E207.53594
G1 X9.723 Y16.842 E207.98507
G1 X8.103 Y18.472 E209.47121
G1 X7.341 Y19.44 E210.26788
G1 X15.419 Y19.44 E215.49178
G1 X15.596 Y19.015 E215.78950
G1 X15.922 Y18.472 E216.19907
G1 X16.355 Y17.928 E216.64870
G1 X17.975 Y16.299 E218.13439
G1 X18.441 Y15.755 E218.59760
G1 X18.819 Y15.212 E219.02546
G1 X19.33 Y14.125 E219.80221
G1 X19.581 Y13.039 E220.52302
G1 X19.613 Y11.952 E221.22626
G1 X19.4 Y10.866 E221.94194
G1 X19.175 Y10.322 E222.32264
G1 X18.849 Y9.779 E222.73222
G1 X18.416 Y9.236 E223.18135
G1 X16.796 Y7.606 E224.66749
G1 X15.952 Y6.519 E225.55745
G1 X15.44 Y5.433 E226.33388
G1 X15.189 Y4.346 E227.05532
G1 X15.158 Y3.26 E227.75791
G1 X15.37 Y2.173 E228.47410
G1 X15.596 Y1.63 E228.85445
G1 X15.922 Y1.087 E229.26403
G1 X16.355 Y.543 E229.71365
G1 X17.975 Y-1.087 E231.19979
G1 X18.819 Y-2.173 E232.08925
G1 X19.33 Y-3.26 E232.86599
G1 X19.581 Y-4.346 E233.58680
G1 X19.613 Y-5.433 E234.29005
G1 X19.4 Y-6.519 E235.00573
G1 X19.175 Y-7.063 E235.38643
G1 X18.849 Y-7.606 E235.79600
G1 X18.416 Y-8.149 E236.24513
G1 X16.796 Y-9.779 E237.73127
G1 X15.952 Y-10.866 E238.62124
G1 X15.44 Y-11.952 E239.39767
G1 X15.189 Y-13.039 E240.11911
G1 X15.158 Y-14.125 E240.82169
G1 X15.37 Y-15.212 E241.53788
G1 X15.596 Y-15.755 E241.91824
G1 X15.922 Y-16.299 E242.32837
G1 X16.355 Y-16.842 E242.77750
G1 X17.975 Y-18.472 E244.26364
G1 X18.736 Y-19.44 E245.05991
G1 X28.044 Y-19.44 E249.07279
G1 X27.867 Y-19.015 E249.27127
G1 X27.541 Y-18.472 E249.54432
G1 X27.108 Y-17.928 E249.84407
G1 X25.488 Y-16.299 E250.83453
G1 X24.644 Y-15.212 E251.42784
G1 X24.132 Y-14.125 E251.94585
G1 X23.882 Y-13.039 E252.42629
G1 X23.85 Y-11.952 E252.89512
G1 X24.063 Y-10.866 E253.37224
G1 X24.288 Y-10.322 E253.62604
G1 X24.614 Y-9.779 E253.89909
G1 X25.047 Y-9.236 E254.19851
G1 X26.667 Y-7.606 E255.18927
G1 X27.511 Y-6.519 E255.78258
G1 X28.023 Y-5.433 E256.50725
G1 X28.274 Y-4.346 E257.46917
G1 X28.305 Y-3.26 E258.40595
G1 X28.093 Y-2.173 E259.36087
G1 X27.867 Y-1.63 E259.86801
G1 X27.541 Y-1.087 E260.41411
G1 X27.108 Y-.543 E260.89371
G1 X25.488 Y1.087 E261.88447
G1 X24.644 Y2.173 E262.47744
G1 X24.132 Y3.26 E262.99545
G1 X23.882 Y4.346 E263.47589
G1 X23.85 Y5.433 E263.94472
G1 X24.063 Y6.519 E264.42184
G1 X24.288 Y7.063 E264.67564
G1 X24.614 Y7.606 E264.94869
G1 X25.047 Y8.149 E265.24811
G1 X26.667 Y9.779 E266.23887
G1 X27.511 Y10.866 E266.83218
G1 X28.023 Y11.952 E267.34980
G1 X28.274 Y13.039 E267.83076
G1 X28.305 Y14.125 E268.29915
G1 X28.093 Y15.212 E268.77661
G1 X27.867 Y15.755 E269.03018
G1 X27.541 Y16.299 E269.30360
G1 X27.108 Y16.842 E269.60302
G1 X25.488 Y18.472 E270.59378
G1 X24.726 Y19.44 E271.12489
G1 X32.804 Y19.44 E274.60749
G1 X32.981 Y19.015 E274.80597
G1 X33.307 Y18.472 E275.07902
G1 X33.74 Y17.928 E275.55862
G1 X35.36 Y16.299 E277.53954
G1 X35.826 Y15.755 E278.15716
G1 X36.204 Y15.212 E278.72764
G1 X36.716 Y14.125 E279.76366
G1 X36.966 Y13.039 E280.72454
G1 X36.998 Y11.952 E281.66220
G1 X36.786 Y10.866 E282.61628
G1 X36.56 Y10.322 E283.12420
G1 X36.234 Y9.779 E283.67030
G1 X35.801 Y9.236 E284.26914
G1 X34.181 Y7.606 E286.25066
G1 X33.337 Y6.519 E287.43728
G1 X32.825 Y5.433 E288.47252
G1 X32.575 Y4.346 E289.43424
G1 X32.543 Y3.26 E290.37104
G1 X32.755 Y2.173 E291.32596
G1 X32.981 Y1.63 E291.83310
G1 X33.307 Y1.087 E292.37920
G1 X33.74 Y.543 E292.97870
G1 X35.36 Y-1.087 E294.96022
G1 X36.204 Y-2.173 E296.14616
G1 X36.716 Y-3.26 E297.18218
G1 X36.966 Y-4.346 E298.14306
G1 X36.998 Y-5.433 E299.08072
G1 X36.786 Y-6.519 E300.03480
G1 X36.56 Y-7.063 E300.54272
G1 X36.234 Y-7.606 E301.08882
G1 X35.801 Y-8.149 E301.68766
G1 X34.181 Y-9.779 E303.66918
G1 X33.337 Y-10.866 E304.85580
G1 X32.825 Y-11.952 E305.89104
G1 X32.575 Y-13.039 E306.85276
G1 X32.543 Y-14.125 E307.78956
G1 X32.755 Y-15.212 E308.74448
G1 X32.981 Y-15.755 E309.25162
G1 X33.307 Y-16.299 E309.79846
G1 X33.74 Y-16.842 E310.39730
G1 X35.36 Y-18.472 E312.37882
G1 X36.122 Y-19.44 E313.44104
G1 X45.429 Y-19.44 E321.46594
G1 X45.253 Y-19.015 E321.86258
G1 X44.927 Y-18.472 E322.40868
G1 X44.494 Y-17.928 E323.00818
G1 X42.873 Y-16.299 E324.98970
G1 X42.029 Y-15.212 E326.17632
G1 X41.518 Y-14.125 E327.21198
G1 X41.267 Y-13.039 E328.17306
G1 X41.236 Y-11.952 E329.11070
G1 X41.448 Y-10.866 E330.06478
G1 X41.673 Y-10.322 E330.57238
G1 X41.999 Y-9.779 E331.11848
G1 X42.432 Y-9.236 E331.71732
G1 X44.052 Y-7.606 E333.69884
G1 X44.897 Y-6.519 E334.88598
G1 X45.408 Y-5.433 E335.92086
G1 X45.659 Y-4.346 E336.88278
G1 X45.69 Y-3.26 E337.81956
G1 X45.478 Y-2.173 E338.77448
G1 X45.253 Y-1.63 E339.28128
G1 X44.927 Y-1.087 E339.82738
G1 X44.494 Y-.543 E340.42688
G1 X42.873 Y1.087 E342.40902
G1 X42.029 Y2.173 E343.59496
G1 X41.518 Y3.26 E344.63062
G1 X41.267 Y4.346 E345.59170
G1 X41.236 Y5.433 E346.52934
G1 X41.448 Y6.519 E347.48342
G1 X41.673 Y7.063 E347.99102
G1 X41.999 Y7.606 E348.53712
G1 X42.432 Y8.149 E349.13596
G1 X44.052 Y9.779 E351.11748
G1 X44.897 Y10.866 E352.30462
G1 X45.408 Y11.952 E353.33950
G1 X45.659 Y13.039 E354.30142
G1 X45.69 Y14.125 E355.23820
G1 X45.478 Y15.212 E356.19312
G1 X45.253 Y15.755 E356.69992
G1 X44.927 Y16.299 E357.24676
G1 X44.494 Y16.842 E357.84560
G1 X42.873 Y18.472 E359.82774
G1 X42.112 Y19.44 E360.88944
G1 X50.189 Y19.44 E367.85378
G1 X50.366 Y19.015 E368.25074
G1 X50.692 Y18.472 E368.79684
G1 X51.125 Y17.928 E369.39634
G1 X52.745 Y16.299 E371.37726
G1 X53.211 Y15.755 E371.99488
G1 X53.882 Y14.669 E373.09560
G1 X54.101 Y14.125 E373.60124
G1 X54.351 Y13.039 E374.56212
G1 X54.383 Y11.952 E375.49978
G1 X54.171 Y10.866 E376.45386
G1 X53.945 Y10.322 E376.96178
G1 X53.619 Y9.779 E377.50788
G1 X53.186 Y9.236 E378.10672
G1 X51.566 Y7.606 E380.08824
G1 X50.722 Y6.519 E381.27486
G1 X50.21 Y5.433 E382.31010
G1 X49.96 Y4.346 E383.27182
G1 X49.928 Y3.26 E384.20862
G1 X50.14 Y2.173 E385.16354
G1 X50.366 Y1.63 E385.67068
G1 X50.692 Y1.087 E386.21678
