; generated by PrusaSlicer 2.9.0 on 2025-02-10 at 15:40:57 UTC

; 

; external perimeters extrusion width = 1.12mm
; perimeters extrusion width = 1.12mm
; infill extrusion width = 1.12mm
; solid infill extrusion width = 1.12mm
; top infill extrusion width = 1.00mm
; first layer extrusion width = 1.05mm

M190 S25 ; set bed temperature and wait for it to be reached
;TYPE:Custom
G28 H ; home all axes
G92 E0 ; zero extruder
M6
M220 S100
M221 S100
M104 S200 T0
M104 S160 T1

M109 S200 T0
M109 S160 T1
G21 ; set units to millimeters
G90 ; use absolute coordinates
M82 ; use absolute distances for extrusion
G92 E0
M107
;LAYER_CHANGE
;Z:0.5
;HEIGHT:0.5
G1 E-3.00000 F2400
G92 E0
G1 Z.5 F7800
G1 X0 Y-25.471
G1 E3.00000 F2400
;TYPE:Skirt/Brim
;WIDTH:1.05
G1 F1500
G1 X60 Y-25.471 E54.73458
G1 X62.045 Y-25.075 E56.53062
G1 X63.793 Y-23.943 E58.32626
G1 X64.992 Y-22.24 E60.12208
G1 X65.471 Y-20 E62.09718
G1 X65.471 Y20 E96.58690
G1 X65.075 Y22.045 E98.38294
G1 X63.943 Y23.793 E100.17858
G1 X62.24 Y24.992 E101.97440
G1 X60 Y25.471 E103.94950
G1 X-60 Y25.471 E171.20447
G1 X-62.045 Y25.075 E172.10249
G1 X-63.793 Y23.943 E173.00031
G1 X-64.992 Y22.24 E173.89822
G1 X-65.471 Y20 E174.88577
G1 X-65.471 Y-20 E192.13063
G1 X-65.075 Y-22.045 E193.02865
G1 X-63.943 Y-23.793 E193.92647
G1 X-62.24 Y-24.992 E194.82438
G1 X-60 Y-25.471 E195.81193
G1 X-.15 Y-25.471 E224.19482
G1 E221.19482 F2400
G92 E0
G1 X-.15 Y-25.471 F7800
G92 E0
G1 X-47.573 Y-19.44
G1 E3.00000 F2400
;TYPE:Internal infill
G1 F1500
G1 X-41.497 Y-19.44 E6.14339
G1 X-41.673 Y-19.015 E6.34171
G1 X-41.999 Y-18.472 E6.61476
G1 X-42.432 Y-17.928 E6.91451
G1 X-44.052 Y-16.299 E7.90497
G1 X-44.897 Y-15.212 E8.49854
G1 X-45.408 Y-14.125 E9.01637
G1 X-45.659 Y-13.039 E9.49691
G1 X-45.69 Y-11.952 E9.96573
G1 X-45.478 Y-10.866 E10.44277
G1 X-45.253 Y-10.322 E10.69657
G1 X-44.927 Y-9.779 E10.96962
G1 X-44.494 Y-9.236 E11.26904
G1 X-42.873 Y-7.606 E12.26011
G1 X-42.029 Y-6.519 E12.85342
G1 X-41.518 Y-5.433 E13.37086
G1 X-41.267 Y-4.346 E13.85182
G1 X-41.235 Y-3.26 E14.32022
G1 X-41.448 Y-2.173 E14.79776
G1 X-41.673 Y-1.63 E15.05116
G1 X-41.999 Y-1.087 E15.32421
G1 X-42.432 Y-.543 E15.62396
G1 X-44.052 Y1.087 E16.61472
G1 X-44.897 Y2.173 E17.20795
G1 X-45.408 Y3.26 E17.72578
G1 X-45.659 Y4.346 E18.20632
G1 X-45.69 Y5.433 E18.67514
G1 X-45.478 Y6.519 E19.15218
G1 X-45.253 Y7.063 E19.40598
G1 X-44.927 Y7.606 E19.67903
G1 X-44.494 Y8.149 E19.97845
G1 X-42.873 Y9.779 E20.96952
G1 X-42.029 Y10.866 E21.56283
G1 X-41.518 Y11.952 E22.08027
G1 X-41.267 Y13.039 E22.56123
G1 X-41.235 Y14.125 E23.02963
G1 X-41.448 Y15.212 E23.50717
G1 X-41.673 Y15.755 E23.76057
G1 X-41.999 Y16.299 E24.03399
G1 X-42.432 Y16.842 E24.33341
G1 X-44.052 Y18.472 E25.32417
G1 X-44.814 Y19.44 E25.85528
G1 X-36.736 Y19.44 E29.33788
G1 X-36.56 Y19.015 E29.53620
G1 X-36.234 Y18.472 E29.80925
G1 X-35.801 Y17.928 E30.10900
G1 X-34.181 Y16.299 E31.09946
G1 X-33.715 Y15.755 E31.40827
G1 X-33.337 Y15.212 E31.69351
G1 X-32.825 Y14.125 E32.21152
G1 X-32.574 Y13.039 E32.69206
G1 X-32.543 Y11.952 E33.16088
G1 X-32.755 Y10.866 E33.63792
G1 X-32.981 Y10.322 E33.89188
G1 X-33.307 Y9.779 E34.16493
G1 X-33.74 Y9.236 E34.46435
G1 X-35.36 Y7.606 E35.45511
G1 X-36.204 Y6.519 E36.04842
G1 X-36.716 Y5.433 E36.56604
G1 X-36.966 Y4.346 E37.04690
G1 X-36.998 Y3.26 E37.51530
G1 X-36.786 Y2.173 E37.99276
G1 X-36.56 Y1.63 E38.24633
G1 X-36.234 Y1.087 E38.51938
G1 X-35.801 Y.543 E38.81913
G1 X-34.181 Y-1.087 E39.80989
G1 X-33.337 Y-2.173 E40.40286
G1 X-32.825 Y-3.26 E40.92087
G1 X-32.574 Y-4.346 E41.40141
G1 X-32.543 Y-5.433 E41.87023
G1 X-32.755 Y-6.519 E42.34727
G1 X-32.981 Y-7.063 E42.60123
G1 X-33.307 Y-7.606 E42.87428
G1 X-33.74 Y-8.149 E43.17370
G1 X-35.36 Y-9.779 E44.16446
G1 X-36.204 Y-10.866 E44.75777
G1 X-36.716 Y-11.952 E45.27539
G1 X-36.966 Y-13.039 E45.75625
G1 X-36.998 Y-14.125 E46.22465
G1 X-36.786 Y-15.212 E46.70211
G1 X-36.56 Y-15.755 E46.95568
G1 X-36.234 Y-16.299 E47.22910
G1 X-35.801 Y-16.842 E47.52852
G1 X-34.181 Y-18.472 E48.51928
G1 X-33.419 Y-19.44 E49.05039
G1 X-24.112 Y-19.44 E53.06284
G1 X-24.288 Y-19.015 E53.26116
G1 X-24.614 Y-18.472 E53.53421
G1 X-25.047 Y-17.928 E53.83396
G1 X-26.667 Y-16.299 E54.82442
G1 X-27.511 Y-15.212 E55.41773
G1 X-28.023 Y-14.125 E55.93574
G1 X-28.274 Y-13.039 E56.41628
G1 X-28.305 Y-11.952 E56.88510
G1 X-28.093 Y-10.866 E57.36214
G1 X-27.867 Y-10.322 E57.61610
G1 X-27.541 Y-9.779 E57.88915
G1 X-27.108 Y-9.236 E58.18857
G1 X-25.488 Y-7.606 E59.67471
G1 X-24.644 Y-6.519 E60.56467
G1 X-24.132 Y-5.433 E61.34110
G1 X-23.882 Y-4.346 E62.06239
G1 X-23.85 Y-3.26 E62.76499
G1 X-24.063 Y-2.173 E63.48130
G1 X-24.288 Y-1.63 E63.86140
G1 X-24.614 Y-1.087 E64.27098
G1 X-25.047 Y-.543 E64.72060
G1 X-26.667 Y1.087 E66.20674
G1 X-27.511 Y2.173 E67.09620
G1 X-28.023 Y3.26 E67.87321
G1 X-28.274 Y4.346 E68.59402
G1 X-28.305 Y5.433 E69.10972
G1 X-28.093 Y6.519 E69.58676
G1 X-27.867 Y7.063 E69.84072
G1 X-27.541 Y7.606 E70.16838
G1 X-27.108 Y8.149 E70.61751
G1 X-25.488 Y9.779 E72.10365
G1 X-24.644 Y10.866 E72.99362
G1 X-24.132 Y11.952 E73.77005
G1 X-23.882 Y13.039 E74.49134
G1 X-23.85 Y14.125 E75.19394
G1 X-24.063 Y15.212 E75.91025
G1 X-24.288 Y15.755 E76.21433
G1 X-24.614 Y16.299 E76.48775
G1 X-25.047 Y16.842 E76.78717
G1 X-26.667 Y18.472 E77.77793
G1 X-27.429 Y19.44 E78.30904
G1 X-19.351 Y19.44 E82.13990
G1 X-19.175 Y19.015 E82.43738
G1 X-18.849 Y18.472 E82.84695
G1 X-18.416 Y17.928 E83.29658
G1 X-16.796 Y16.299 E84.78227
G1 X-16.33 Y15.755 E85.24549
G1 X-15.951 Y15.212 E85.67370
G1 X-15.44 Y14.125 E86.45045
G1 X-15.189 Y13.039 E87.17126
G1 X-15.158 Y11.952 E87.87449
G1 X-15.37 Y10.866 E88.59005
G1 X-15.596 Y10.322 E88.97099
G1 X-15.922 Y9.779 E89.38056
G1 X-16.355 Y9.236 E89.82969
G1 X-17.975 Y7.606 E91.31583
G1 X-18.819 Y6.519 E92.20580
G1 X-19.33 Y5.433 E92.98196
G1 X-19.581 Y4.346 E93.70340
G1 X-19.613 Y3.26 E94.40600
G1 X-19.4 Y2.173 E95.12231
G1 X-19.175 Y1.63 E95.50241
G1 X-18.849 Y1.087 E95.91198
G1 X-18.416 Y.543 E96.36161
G1 X-16.796 Y-1.087 E97.84775
G1 X-15.951 Y-2.173 E98.73759
G1 X-15.44 Y-3.26 E99.51434
G1 X-15.189 Y-4.346 E100.23515
G1 X-15.158 Y-5.433 E100.93838
G1 X-15.37 Y-6.519 E101.65394
G1 X-15.596 Y-7.063 E102.03488
G1 X-15.922 Y-7.606 E102.44445
G1 X-16.355 Y-8.149 E102.89359
G1 X-17.975 Y-9.779 E104.37972
G1 X-18.819 Y-10.866 E105.26969
G1 X-19.33 Y-11.952 E106.04585
G1 X-19.581 Y-13.039 E106.76729
G1 X-19.613 Y-14.125 E107.46989
G1 X-19.4 Y-15.212 E108.18620
G1 X-19.175 Y-15.755 E108.56630
G1 X-18.849 Y-16.299 E108.97643
G1 X-18.416 Y-16.842 E109.42556
G1 X-16.796 Y-18.472 E110.91170
G1 X-16.034 Y-19.44 E111.70836
G1 X-6.726 Y-19.44 E117.72768
G1 X-6.903 Y-19.015 E118.02540
G1 X-7.229 Y-18.472 E118.43498
G1 X-7.662 Y-17.928 E118.88460
G1 X-9.282 Y-16.299 E120.37029
G1 X-10.126 Y-15.212 E121.26026
G1 X-10.638 Y-14.125 E122.03727
G1 X-10.888 Y-13.039 E122.75793
G1 X-10.92 Y-11.952 E123.46118
G1 X-10.708 Y-10.866 E124.17674
G1 X-10.482 Y-10.322 E124.55768
G1 X-10.156 Y-9.779 E124.96725
G1 X-9.723 Y-9.236 E125.41638
G1 X-8.103 Y-7.606 E126.90252
G1 X-7.259 Y-6.519 E127.79249
G1 X-6.747 Y-5.433 E128.56892
G1 X-6.497 Y-4.346 E129.29021
G1 X-6.465 Y-3.26 E129.99281
G1 X-6.677 Y-2.173 E130.70900
G1 X-6.903 Y-1.63 E131.08935
G1 X-7.229 Y-1.087 E131.49893
G1 X-7.662 Y-.543 E131.94855
G1 X-9.282 Y1.087 E133.43469
G1 X-10.126 Y2.173 E134.32415
G1 X-10.638 Y3.26 E135.10116
G1 X-10.888 Y4.346 E135.82182
G1 X-10.92 Y5.433 E136.52507
G1 X-10.708 Y6.519 E137.24063
G1 X-10.482 Y7.063 E137.62157
G1 X-10.156 Y7.606 E138.03114
G1 X-9.723 Y8.149 E138.48027
G1 X-8.103 Y9.779 E139.96641
G1 X-7.259 Y10.866 E140.85638
G1 X-6.747 Y11.952 E141.63281
G1 X-6.497 Y13.039 E142.35410
G1 X-6.465 Y14.125 E143.05670
G1 X-6.677 Y15.212 E143.77289
G1 X-6.903 Y15.755 E144.15324
G1 X-7.229 Y16.299 E144.56337
G1 X-7.662 Y16.842 E145.01250
G1 X-9.282 Y18.472 E146.49864
G1 X-10.044 Y19.44 E147.29531
G1 X-1.966 Y19.44 E152.51921
G1 X-1.79 Y19.015 E152.81669
G1 X-1.464 Y18.472 E153.22626
G1 X-1.031 Y17.928 E153.67589
G1 X.589 Y16.299 E155.16158
G1 X1.055 Y15.755 E155.62479
G1 X1.434 Y15.212 E156.05301
G1 X1.945 Y14.125 E156.82976
G1 X2.196 Y13.039 E157.55057
G1 X2.227 Y11.952 E158.25380
G1 X2.015 Y10.866 E158.96936
G1 X1.79 Y10.322 E159.35006
G1 X1.464 Y9.779 E159.75963
G1 X1.031 Y9.236 E160.20876
G1 X-.589 Y7.606 E161.69490
G1 X-1.434 Y6.519 E162.58526
G1 X-1.945 Y5.433 E163.36142
G1 X-2.196 Y4.346 E164.08286
G1 X-2.227 Y3.26 E164.78544
G1 X-2.015 Y2.173 E165.50163
G1 X-1.79 Y1.63 E165.88173
G1 X-1.464 Y1.087 E166.29131
G1 X-1.031 Y.543 E166.74093
G1 X.589 Y-1.087 E168.22707
G1 X1.434 Y-2.173 E169.11692
G1 X1.945 Y-3.26 E169.89366
G1 X2.196 Y-4.346 E170.61447
G1 X2.227 Y-5.433 E171.31770
G1 X2.015 Y-6.519 E172.03326
G1 X1.79 Y-7.063 E172.41396
G1 X1.464 Y-7.606 E172.82354
G1 X1.031 Y-8.149 E173.27267
G1 X-.589 Y-9.779 E174.75881
G1 X-1.434 Y-10.866 E175.64916
G1 X-1.945 Y-11.952 E176.42532
G1 X-2.196 Y-13.039 E177.14676
G1 X-2.227 Y-14.125 E177.84935
G1 X-2.015 Y-15.212 E178.56554
G1 X-1.79 Y-15.755 E178.94564
G1 X-1.464 Y-16.299 E179.35577
G1 X-1.031 Y-16.842 E179.80490
G1 X.589 Y-18.472 E181.29104
G1 X1.351 Y-19.44 E182.08770
G1 X10.659 Y-19.44 E188.10702
G1 X10.482 Y-19.015 E188.40474
G1 X10.156 Y-18.472 E188.81432
G1 X9.723 Y-17.928 E189.26394
G1 X8.103 Y-16.299 E190.74963
G1 X7.259 Y-15.212 E191.63960
G1 X6.747 Y-14.125 E192.41661
G1 X6.497 Y-13.039 E193.13727
G1 X6.465 Y-11.952 E193.84052
G1 X6.677 Y-10.866 E194.55608
G1 X6.903 Y-10.322 E194.93702
G1 X7.229 Y-9.779 E195.34659
G1 X7.662 Y-9.236 E195.79572
G1 X9.282 Y-7.606 E197.28186
G1 X10.126 Y-6.519 E198.17183
G1 X10.638 Y-5.433 E198.94826
G1 X10.888 Y-4.346 E199.66955
G1 X10.92 Y-3.26 E200.37215
G1 X10.708 Y-2.173 E201.08834
G1 X10.482 Y-1.63 E201.46869
G1 X10.156 Y-1.087 E201.87827
G1 X9.723 Y-.543 E202.32789
G1 X8.103 Y1.087 E203.81403
G1 X7.259 Y2.173 E204.70349
G1 X6.747 Y3.26 E205.48050
G1 X6.497 Y4.346 E206.20116
G1 X6.465 Y5.433 E206.90441
G1 X6.677 Y6.519 E207.61997
G1 X6.903 Y7.063 E208.00091
G1 X7.229 Y7.606 E208.41048
G1 X7.662 Y8.149 E208.85961
G1 X9.282 Y9.779 E210.34575
G1 X10.126 Y10.866 E211.23572
G1 X10.638 Y11.952 E212.01215
G1 X10.888 Y13.039 E212.73344
G1 X10.92 Y14.125 E213.43604
G1 X10.708 Y15.212 E214.15223
G1 X10.482 Y15.755 E214.53258
G1 X10.156 Y16.299 E214.94271
G1 X9.723 Y16.842 E215.39184
G1 X8.103 Y18.472 E216.87798
G1 X7.341 Y19.44 E217.67465
G1 X15.419 Y19.44 E222.89855
G1 X15.596 Y19.015 E223.19627
G1 X15.922 Y18.472 E223.60584
G1 X16.355 Y17.928 E224.05547
G1 X17.975 Y16.299 E225.54116
G1 X18.441 Y15.755 E226.00437
G1 X18.819 Y15.212 E226.43223
G1 X19.33 Y14.125 E227.20898
G1 X19.581 Y13.039 E227.92979
G1 X19.613 Y11.952 E228.63303
G1 X19.4 Y10.866 E229.34871
G1 X19.175 Y10.322 E229.72941
G1 X18.849 Y9.779 E230.13899
G1 X18.416 Y9.236 E230.58812
G1 X16.796 Y7.606 E232.07426
G1 X15.952 Y6.519 E232.96422
G1 X15.44 Y5.433 E233.74065
G1 X15.189 Y4.346 E234.46209
G1 X15.158 Y3.26 E235.16468
G1 X15.37 Y2.173 E235.88087
G1 X15.596 Y1.63 E236.26122
G1 X15.922 Y1.087 E236.67080
G1 X16.355 Y.543 E237.12042
G1 X17.975 Y-1.087 E238.60656
G1 X18.819 Y-2.173 E239.49602
G1 X19.33 Y-3.26 E240.27276
G1 X19.581 Y-4.346 E240.99357
G1 X19.613 Y-5.433 E241.69682
G1 X19.4 Y-6.519 E242.41250
G1 X19.175 Y-7.063 E242.79320
G1 X18.849 Y-7.606 E243.20277
G1 X18.416 Y-8.149 E243.65190
G1 X16.796 Y-9.779 E245.13804
G1 X15.952 Y-10.866 E246.02801
G1 X15.44 Y-11.952 E246.80444
G1 X15.189 Y-13.039 E247.52588
G1 X15.158 Y-14.125 E248.22846
G1 X15.37 Y-15.212 E248.94465
G1 X15.596 Y-15.755 E249.32501
G1 X15.922 Y-16.299 E249.73514
G1 X16.355 Y-16.842 E250.18427
G1 X17.975 Y-18.472 E251.67041
G1 X18.736 Y-19.44 E252.46668
G1 X28.044 Y-19.44 E256.88085
G1 X27.867 Y-19.015 E257.07933
G1 X27.541 Y-18.472 E257.35238
G1 X27.108 Y-17.928 E257.65213
G1 X25.488 Y-16.299 E258.64259
G1 X24.644 Y-15.212 E259.23590
G1 X24.132 Y-14.125 E259.90932
G1 X23.882 Y-13.039 E260.62998
G1 X23.85 Y-11.952 E261.33322
G1 X24.063 Y-10.866 E262.04890
G1 X24.288 Y-10.322 E262.42960
G1 X24.614 Y-9.779 E262.83918
G1 X25.047 Y-9.236 E263.28831
G1 X26.667 Y-7.606 E264.77445
G1 X27.511 Y-6.519 E265.66441
G1 X28.023 Y-5.433 E266.75141
G1 X28.274 Y-4.346 E268.19429
G1 X28.305 Y-3.26 E269.59946
G1 X28.093 Y-2.173 E271.03184
G1 X27.867 Y-1.63 E271.79255
G1 X27.541 Y-1.087 E272.61170
G1 X27.108 Y-.543 E273.33110
G1 X25.488 Y1.087 E274.81724
G1 X24.644 Y2.173 E275.70670
G1 X24.132 Y3.26 E276.48371
G1 X23.882 Y4.346 E277.20437
G1 X23.85 Y5.433 E277.90762
G1 X24.063 Y6.519 E278.62330
G1 X24.288 Y7.063 E279.00400
G1 X24.614 Y7.606 E279.41357
G1 X25.047 Y8.149 E279.86270
G1 X26.667 Y9.779 E281.34884
G1 X27.511 Y10.866 E282.00148
G1 X28.023 Y11.952 E282.51910
G1 X28.274 Y13.039 E283.00006
G1 X28.305 Y14.125 E283.46845
G1 X28.093 Y15.212 E283.94591
G1 X27.867 Y15.755 E284.19948
G1 X27.541 Y16.299 E284.47290
G1 X27.108 Y16.842 E284.77232
G1 X25.488 Y18.472 E285.76308
G1 X24.726 Y19.44 E286.29419
G1 X32.804 Y19.44 E289.77679
G1 X32.981 Y19.015 E289.97527
G1 X33.307 Y18.472 E290.24832
G1 X33.74 Y17.928 E290.72792
G1 X35.36 Y16.299 E292.70884
G1 X35.826 Y15.755 E293.32646
G1 X36.204 Y15.212 E293.89694
G1 X36.716 Y14.125 E294.93296
G1 X36.966 Y13.039 E295.89384
G1 X36.998 Y11.952 E296.83150
G1 X36.786 Y10.866 E297.78558
G1 X36.56 Y10.322 E298.29350
G1 X36.234 Y9.779 E298.83960
G1 X35.801 Y9.236 E299.43844
G1 X34.181 Y7.606 E301.41996
G1 X33.337 Y6.519 E302.60658
G1 X32.825 Y5.433 E303.64182
G1 X32.575 Y4.346 E304.60354
G1 X32.543 Y3.26 E305.54034
G1 X32.755 Y2.173 E306.49526
G1 X32.981 Y1.63 E307.00240
G1 X33.307 Y1.087 E307.54850
G1 X33.74 Y.543 E308.14800
G1 X35.36 Y-1.087 E310.12952
G1 X36.204 Y-2.173 E311.31546
G1 X36.716 Y-3.26 E312.35148
G1 X36.966 Y-4.346 E313.31236
G1 X36.998 Y-5.433 E314.25002
G1 X36.786 Y-6.519 E315.20410
G1 X36.56 Y-7.063 E315.71202
G1 X36.234 Y-7.606 E316.25812
G1 X35.801 Y-8.149 E316.85696
G1 X34.181 Y-9.779 E318.83848
G1 X33.337 Y-10.866 E320.02510
G1 X32.825 Y-11.952 E321.06034
G1 X32.575 Y-13.039 E322.02206
G1 X32.543 Y-14.125 E322.95886
G1 X32.755 Y-15.212 E323.91378
G1 X32.981 Y-15.755 E324.42092
G1 X33.307 Y-16.299 E324.96776
G1 X33.74 Y-16.842 E325.56660
G1 X35.36 Y-18.472 E327.54812
G1 X36.122 Y-19.44 E328.61034
G1 X45.429 Y-19.44 E336.63524
G1 X45.253 Y-19.015 E337.03188
G1 X44.927 Y-18.472 E337.57798
G1 X44.494 Y-17.928 E338.17748
G1 X42.873 Y-16.299 E340.15900
G1 X42.029 Y-15.212 E341.34562
G1 X41.518 Y-14.125 E342.38128
G1 X41.267 Y-13.039 E343.34236
G1 X41.236 Y-11.952 E344.28000
G1 X41.448 Y-10.866 E345.23408
G1 X41.673 Y-10.322 E345.74168
G1 X41.999 Y-9.779 E346.28778
G1 X42.432 Y-9.236 E346.88662
G1 X44.052 Y-7.606 E348.86814
G1 X44.897 Y-6.519 E350.05528
G1 X45.408 Y-5.433 E351.09016
G1 X45.659 Y-4.346 E352.05208
G1 X45.69 Y-3.26 E352.98886
G1 X45.478 Y-2.173 E353.94378
G1 X45.253 Y-1.63 E354.45058
G1 X44.927 Y-1.087 E354.99668
G1 X44.494 Y-.543 E355.59618
G1 X42.873 Y1.087 E357.57832
G1 X42.029 Y2.173 E358.76426
G1 X41.518 Y3.26 E359.79992
G1 X41.267 Y4.346 E360.76100
G1 X41.236 Y5.433 E361.69864
G1 X41.448 Y6.519 E362.65272
G1 X41.673 Y7.063 E363.16032
G1 X41.999 Y7.606 E363.70642
G1 X42.432 Y8.149 E364.30526
G1 X44.052 Y9.779 E366.28678
G1 X44.897 Y10.866 E367.47392
G1 X45.408 Y11.952 E368.50880
G1 X45.659 Y13.039 E369.47072
G1 X45.69 Y14.125 E370.40750
G1 X45.478 Y15.212 E371.36242
G1 X45.253 Y15.755 E371.86922
G1 X44.927 Y16.299 E372.41606
G1 X44.494 Y16.842 E373.01490
G1 X42.873 Y18.472 E374.99704
G1 X42.112 Y19.44 E376.05874
G1 X50.189 Y19.44 E383.02308
G1 X50.366 Y19.015 E383.42004
G1 X50.692 Y18.472 E383.96614
G1 X51.125 Y17.928 E384.56564
G1 X52.745 Y16.299 E386.54656
G1 X53.211 Y15.755 E387.16418
G1 X53.882 Y14.669 E388.26490
G1 X54.101 Y14.125 E388.77054
G1 X54.351 Y13.039 E389.73142
G1 X54.383 Y11.952 E390.66908
G1 X54.171 Y10.866 E391.62316
G1 X53.945 Y10.322 E392.13108
G1 X53.619 Y9.779 E392.67718
G1 X53.186 Y9.236 E393.27602
G1 X51.566 Y7.606 E395.25754
G1 X50.722 Y6.519 E396.44416
G1 X50.21 Y5.433 E397.47940
G1 X49.96 Y4.346 E398.44112
G1 X49.928 Y3.26 E399.37792
G1 X50.14 Y2.173 E400.33284
G1 X50.366 Y1.63 E400.83998
